;FLAVOR:Marlin
;TIME:2311
;Filament used: 1.54041m
;Layer height: 0.2
;MINX:68.62
;MINY:84.43
;MINZ:0.2
;MAXX:151.38
;MAXY:135.57
;MAXZ:1.2
;Generated with Cura_SteamEngine 4.8.0
M140 S60
M105
M190 S60
M104 S200
M105
M109 S200
M82 ;absolute extrusion mode
G28 ; home all axes
 M117 Purge extruder
 G92 E0 ; reset extruder
 G1 Z1.0 F3000 ; move z up little to prevent scratching of surface
 G1 X2 Y20 Z0.3 F5000.0 ; move to start-line position
 G1 X2 Y200.0 Z0.3 F1500.0 E15 ; draw 1st line
 G1 X2 Y200.0 Z0.4 F5000.0 ; move to side a little
 G1 X2 Y20 Z0.4 F1500.0 E30 ; draw 2nd line
 G92 E0 ; reset extruder
 G1 Z1.0 F3000 ; move z up little to prevent scratching of surface
G92 E0
G92 E0
G1 F1500 E-2
;LAYER_COUNT:5
;LAYER:0
M107
G1 F300 Z0.4
;MESH:GC_LNTCN.stl
G0 F6000 X143.139 Y132.756 Z0.4
;TYPE:WALL-INNER
G1 F300 Z0.2
G1 F1500 E0
G1 F1200 X144.114 Y132.596 E0.03615
G1 X144.623 Y132.48 E0.05525
G1 X144.948 Y132.383 E0.06766
G1 X145.452 Y132.202 E0.08725
G1 X145.767 Y132.065 E0.09982
G1 X146.248 Y131.822 E0.11953
G1 X146.543 Y131.647 E0.13208
G1 X146.991 Y131.345 E0.15185
G1 X147.257 Y131.141 E0.16411
G1 X147.485 Y130.95 E0.175
G1 X147.706 Y130.748 E0.18595
G1 X147.916 Y130.54 E0.19676
G1 X148.124 Y130.314 E0.208
G1 X148.442 Y129.927 E0.22633
G1 X148.639 Y129.66 E0.23847
G1 X148.806 Y129.409 E0.2495
G1 X148.96 Y129.155 E0.26036
G1 X149.102 Y128.897 E0.27114
G1 X149.236 Y128.631 E0.28204
G1 X149.361 Y128.35 E0.29329
G1 X149.55 Y127.846 E0.31298
G1 X149.65 Y127.527 E0.32521
G1 X149.728 Y127.226 E0.33659
G1 X149.83 Y126.697 E0.3563
G1 X149.876 Y126.368 E0.36845
G1 X149.903 Y126.066 E0.37955
G1 X149.917 Y125.766 E0.39053
G1 X149.918 Y125.467 E0.40147
G1 X149.907 Y125.17 E0.41235
G1 X149.885 Y124.862 E0.42364
G1 X149.81 Y124.325 E0.44348
G1 X149.743 Y123.992 E0.45591
G1 X149.603 Y123.468 E0.47575
G1 X149.492 Y123.144 E0.48828
G1 X149.293 Y122.65 E0.50777
G1 X149.145 Y122.34 E0.52033
G1 X148.882 Y121.87 E0.54004
G1 X148.702 Y121.588 E0.55228
G1 X148.524 Y121.336 E0.56357
G1 X148.18 Y120.907 E0.58369
G1 X147.845 Y120.548 E0.60165
G1 X147.605 Y120.315 E0.61389
G1 X147.381 Y120.119 E0.62478
G1 X147.15 Y119.93 E0.6357
G1 X146.91 Y119.753 E0.64661
G1 X146.665 Y119.586 E0.65746
G1 X146.411 Y119.429 E0.66838
G1 X146.153 Y119.283 E0.67923
G1 X145.877 Y119.144 E0.69053
G1 X145.384 Y118.928 E0.71022
G1 X145.06 Y118.81 E0.72284
G1 X144.541 Y118.656 E0.74265
G1 X144.213 Y118.581 E0.75496
G1 X144.203 Y118.58 E0.75532
G1 X143.923 Y118.529 E0.76574
G1 X143.095 Y118.406 E0.79636
G1 X143.095 Y118.356 E0.79819
G1 X143.095 Y118.305 E0.80006
G1 X143.08 Y118.307
G1 X142.761 Y118.356 E0.80818
G1 X142.495 Y118.317 E0.81801
G1 X142.482 Y118.315 E0.81849
G1 X142.482 Y118.356
G1 X142.482 Y118.399 E0.81934
G1 X141.537 Y118.545 E0.85433
G1 X141.012 Y118.657 E0.87397
G1 X140.682 Y118.749 E0.8865
G1 X140.174 Y118.926 E0.90618
G1 X139.86 Y119.059 E0.91866
G1 X139.377 Y119.298 E0.93838
G1 X139.079 Y119.468 E0.95093
G1 X138.627 Y119.766 E0.97074
G1 X138.359 Y119.967 E0.98299
G1 X138.129 Y120.156 E0.99388
G1 X137.908 Y120.354 E1.00474
G1 X137.696 Y120.559 E1.01553
G1 X137.489 Y120.777 E1.02653
G1 X137.292 Y121.004 E1.03752
G1 X137.11 Y121.234 E1.04825
G1 X136.934 Y121.471 E1.05905
G1 X136.765 Y121.722 E1.07013
G1 X136.611 Y121.974 E1.08093
G1 X136.461 Y122.243 E1.0922
G1 X136.228 Y122.727 E1.11185
G1 X136.1 Y123.038 E1.12416
G1 X135.996 Y123.333 E1.1356
G1 X135.848 Y123.848 E1.1552
G1 X135.774 Y124.174 E1.16743
G1 X135.721 Y124.469 E1.1784
G1 X135.682 Y124.762 E1.18921
G1 X135.654 Y125.059 E1.20013
G1 X135.638 Y125.359 E1.21112
G1 X135.636 Y125.659 E1.2221
G1 X135.644 Y125.957 E1.233
G1 X135.667 Y126.254 E1.2439
G1 X135.701 Y126.558 E1.25509
G1 X135.795 Y127.091 E1.27489
G1 X135.877 Y127.421 E1.28734
G1 X136.032 Y127.935 E1.30698
G1 X136.154 Y128.256 E1.31954
G1 X136.374 Y128.744 E1.33913
G1 X136.533 Y129.046 E1.35161
G1 X136.814 Y129.51 E1.37146
G1 X137.004 Y129.784 E1.38366
G1 X137.186 Y130.021 E1.39459
G1 X137.375 Y130.25 E1.40545
G1 X137.573 Y130.47 E1.41628
G1 X137.781 Y130.681 E1.42712
G1 X138 Y130.887 E1.43812
G1 X138.225 Y131.081 E1.44899
G1 X138.458 Y131.266 E1.45988
G1 X138.697 Y131.44 E1.47069
G1 X138.946 Y131.607 E1.48166
G1 X139.199 Y131.758 E1.49244
G1 X139.455 Y131.903 E1.5032
G1 X139.735 Y132.042 E1.51464
G1 X140.231 Y132.252 E1.53435
G1 X140.556 Y132.368 E1.54697
G1 X141.077 Y132.516 E1.56679
G1 X141.405 Y132.589 E1.57908
G1 X141.698 Y132.638 E1.58995
G1 X142.526 Y132.752 E1.62053
G1 X142.526 Y132.8 E1.62229
G1 X142.526 Y132.856 E1.62434
G1 X142.542 Y132.854
G1 X142.869 Y132.8 E1.63273
G1 X143.128 Y132.835 E1.64229
G1 X143.139 Y132.837 E1.6427
G1 X143.139 Y132.8
G1 X143.139 Y132.756 E1.64356
G0 F6000 X142.966 Y132.338
G1 F1200 X143.22 Y132.297 E1.65297
G1 X144.029 Y132.164 E1.68297
G1 X144.511 Y132.054 E1.70106
G1 X144.811 Y131.965 E1.71251
G1 X145.29 Y131.793 E1.73113
G1 X145.58 Y131.667 E1.74269
G1 X146.036 Y131.436 E1.7614
G1 X146.308 Y131.275 E1.77296
G1 X146.734 Y130.988 E1.79175
G1 X146.982 Y130.798 E1.80318
G1 X147.195 Y130.619 E1.81336
G1 X147.402 Y130.429 E1.82364
G1 X147.599 Y130.234 E1.83378
G1 X147.792 Y130.025 E1.84419
G1 X148.095 Y129.657 E1.86163
G1 X148.279 Y129.407 E1.87299
G1 X148.435 Y129.173 E1.88328
G1 X148.579 Y128.935 E1.89345
G1 X148.713 Y128.692 E1.90361
G1 X148.838 Y128.443 E1.9138
G1 X148.954 Y128.183 E1.92422
G1 X149.134 Y127.703 E1.94297
G1 X149.227 Y127.406 E1.95436
G1 X149.299 Y127.129 E1.96483
G1 X149.396 Y126.625 E1.98361
G1 X149.439 Y126.318 E1.99495
G1 X149.464 Y126.036 E2.00531
G1 X149.477 Y125.755 E2.0156
G1 X149.478 Y125.474 E2.02588
G1 X149.468 Y125.194 E2.03613
G1 X149.447 Y124.909 E2.04659
G1 X149.376 Y124.399 E2.06542
G1 X149.314 Y124.092 E2.07688
G1 X149.182 Y123.596 E2.09566
G1 X149.08 Y123.298 E2.10719
G1 X148.89 Y122.827 E2.12577
G1 X148.754 Y122.543 E2.13729
G1 X148.504 Y122.096 E2.15602
G1 X148.337 Y121.834 E2.16739
G1 X148.172 Y121.601 E2.17784
G1 X147.847 Y121.195 E2.19686
G1 X147.531 Y120.856 E2.21382
G1 X147.307 Y120.639 E2.22523
G1 X147.097 Y120.455 E2.23545
G1 X146.88 Y120.278 E2.24569
G1 X146.655 Y120.112 E2.25592
G1 X146.425 Y119.955 E2.26611
G1 X146.187 Y119.808 E2.27634
G1 X145.945 Y119.671 E2.28652
G1 X145.69 Y119.542 E2.29697
G1 X145.22 Y119.337 E2.31573
G1 X144.922 Y119.228 E2.32734
G1 X144.429 Y119.082 E2.34615
G1 X144.125 Y119.012 E2.35757
G1 X143.852 Y118.963 E2.36771
G1 X142.922 Y118.825 E2.40211
G1 X142.922 Y120.649 E2.46884
G1 X143.769 Y120.798 E2.50031
G1 X143.983 Y120.848 E2.50835
G1 X144.368 Y120.961 E2.52303
G1 X144.561 Y121.033 E2.53057
G1 X144.923 Y121.192 E2.54503
G1 X145.09 Y121.279 E2.55192
G1 X145.456 Y121.498 E2.56753
G1 X145.618 Y121.609 E2.57471
G1 X145.921 Y121.846 E2.58878
G1 X145.96 Y121.88 E2.59068
G1 X146.112 Y122.015 E2.59811
G1 X146.367 Y122.272 E2.61136
G1 X146.39 Y122.299 E2.61266
G1 X146.367 Y122.299
G1 X146.112 Y122.299 E2.61524
G1 X145.908 Y122.299 E2.62148
G1 X139.655 Y122.299 E2.85025
G1 X139.407 Y122.299 E2.85932
G1 X139.168 Y122.299 E2.86807
G1 X139.407 Y122.047 E2.87373
G1 X139.593 Y121.884 E2.88097
G1 X139.697 Y121.793 E2.88602
G1 X139.871 Y121.656 E2.89413
G1 X140.194 Y121.436 E2.90842
G1 X140.375 Y121.329 E2.91612
G1 X140.721 Y121.152 E2.93034
G1 X140.914 Y121.066 E2.93807
G1 X141.289 Y120.93 E2.95266
G1 X141.49 Y120.868 E2.96036
G1 X141.852 Y120.786 E2.97394
G1 X142.655 Y120.65 E3.00373
G1 X142.655 Y119.073 E3.06143
G1 X142.655 Y119.072 E3.06147
G1 X142.655 Y118.818 E3.07076
G1 X142.403 Y118.856 E3.07655
G1 X141.616 Y118.978 E3.10569
G1 X141.117 Y119.084 E3.12435
G1 X140.814 Y119.169 E3.13586
G1 X140.332 Y119.337 E3.15454
G1 X140.043 Y119.459 E3.16602
G1 X139.584 Y119.686 E3.18475
G1 X139.31 Y119.843 E3.19631
G1 X138.88 Y120.126 E3.21514
G1 X138.631 Y120.313 E3.22653
G1 X138.416 Y120.49 E3.23672
G1 X138.208 Y120.676 E3.24693
G1 X138.009 Y120.869 E3.25707
G1 X137.815 Y121.073 E3.26737
G1 X137.631 Y121.285 E3.27764
G1 X137.459 Y121.502 E3.28777
G1 X137.293 Y121.725 E3.29794
G1 X137.136 Y121.959 E3.30825
G1 X136.991 Y122.196 E3.31842
G1 X136.852 Y122.446 E3.32888
G1 X136.63 Y122.907 E3.3476
G1 X136.511 Y123.195 E3.359
G1 X136.415 Y123.467 E3.36956
G1 X136.274 Y123.958 E3.38825
G1 X136.205 Y124.261 E3.39962
G1 X136.156 Y124.537 E3.40987
G1 X136.119 Y124.812 E3.42002
G1 X136.093 Y125.091 E3.43028
G1 X136.078 Y125.372 E3.44057
G1 X136.076 Y125.654 E3.45089
G1 X136.084 Y125.934 E3.46114
G1 X136.105 Y126.213 E3.47137
G1 X136.137 Y126.495 E3.48176
G1 X136.226 Y127 E3.50052
G1 X136.301 Y127.305 E3.51201
G1 X136.449 Y127.793 E3.53067
G1 X136.561 Y128.087 E3.54218
G1 X136.77 Y128.551 E3.56079
G1 X136.916 Y128.83 E3.57231
G1 X137.183 Y129.27 E3.59114
G1 X137.36 Y129.525 E3.6025
G1 X137.53 Y129.747 E3.61273
G1 X137.708 Y129.962 E3.62294
G1 X137.894 Y130.168 E3.6331
G1 X138.089 Y130.367 E3.64329
G1 X138.294 Y130.56 E3.65359
G1 X138.506 Y130.742 E3.66381
G1 X138.724 Y130.916 E3.67402
G1 X138.949 Y131.079 E3.68418
G1 X139.182 Y131.235 E3.69444
G1 X139.42 Y131.378 E3.7046
G1 X139.661 Y131.514 E3.71473
G1 X139.919 Y131.642 E3.72526
G1 X140.391 Y131.842 E3.74402
G1 X140.69 Y131.949 E3.75564
G1 X141.185 Y132.089 E3.77446
G1 X141.489 Y132.157 E3.78585
G1 X141.764 Y132.203 E3.79606
G1 X142.451 Y132.298 E3.82143
G1 X142.699 Y132.332 E3.83059
G1 X142.699 Y132.082 E3.83629
G1 X142.699 Y132.081 E3.83632
G1 X142.699 Y130.51 E3.8938
G1 X141.819 Y130.367 E3.92642
G1 X141.611 Y130.32 E3.93422
G1 X141.224 Y130.208 E3.94896
G1 X141.047 Y130.145 E3.95583
G1 X140.676 Y129.984 E3.97063
G1 X140.473 Y129.882 E3.97894
G1 X140.12 Y129.675 E3.99391
G1 X139.968 Y129.571 E4.00065
G1 X139.822 Y129.458 E4.00741
G1 X139.649 Y129.324 E4.01541
G1 X139.337 Y129.035 E4.03097
G1 X139.649 Y129.035 E4.03396
G1 X139.868 Y129.035 E4.04067
G1 X140.602 Y129.035 E4.06753
G1 X140.983 Y129.016 E4.08148
G1 X141.429 Y128.856 E4.09882
G1 X141.81 Y128.551 E4.11668
G1 X141.948 Y128.332 E4.12615
G1 X142.069 Y128.139 E4.13448
G1 X142.1 Y128.008 E4.13941
G1 X142.151 Y128.069
G1 X142.297 Y128.243 E4.14518
G1 X143.113 Y129.22 E4.19175
G1 X143.444 Y129.036 E4.2056
G1 X145.713 Y129.036 E4.28862
G1 X145.754 Y129.036 E4.29012
G1 X146.035 Y129.036 E4.3004
G1 X146.222 Y129.036 E4.30724
G1 X146.035 Y129.214 E4.31064
G1 X145.754 Y129.448 E4.32037
G1 X145.721 Y129.472 E4.32182
G1 X145.575 Y129.58 E4.32846
G1 X145.239 Y129.794 E4.34303
G1 X145.054 Y129.897 E4.35078
G1 X144.703 Y130.064 E4.365
G1 X144.501 Y130.146 E4.37298
G1 X144.164 Y130.258 E4.38597
G1 X144.136 Y130.268 E4.38706
G1 X143.877 Y130.336 E4.39686
G1 X143.522 Y130.402 E4.41007
G1 X142.966 Y130.518 E4.43085
G1 X142.966 Y132.08 E4.48799
G1 X142.966 Y132.081 E4.48803
G1 X142.966 Y132.338 E4.49386
G0 F6000 X143.406 Y131.82
;TYPE:WALL-OUTER
G1 F1200 X143.944 Y131.732 E4.5138
G1 X144.4 Y131.628 E4.53091
G1 X144.674 Y131.547 E4.54137
G1 X145.128 Y131.384 E4.55901
G1 X145.393 Y131.269 E4.56958
G1 X145.824 Y131.05 E4.58727
G1 X146.073 Y130.903 E4.59785
G1 X146.477 Y130.631 E4.61567
G1 X146.706 Y130.455 E4.62624
G1 X146.905 Y130.288 E4.63574
G1 X147.098 Y130.111 E4.64532
G1 X147.282 Y129.928 E4.65482
G1 X147.461 Y129.735 E4.66445
G1 X147.748 Y129.387 E4.68095
G1 X147.918 Y129.155 E4.69147
G1 X148.063 Y128.937 E4.70105
G1 X148.198 Y128.714 E4.71059
G1 X148.324 Y128.487 E4.72009
G1 X148.44 Y128.255 E4.72958
G1 X148.547 Y128.016 E4.73916
G1 X148.718 Y127.56 E4.75697
G1 X148.804 Y127.285 E4.76752
G1 X148.87 Y127.032 E4.77708
G1 X148.962 Y126.553 E4.79493
G1 X149.002 Y126.268 E4.80546
G1 X149.025 Y126.007 E4.81504
G1 X149.037 Y125.744 E4.82468
G1 X149.038 Y125.481 E4.8343
G1 X149.029 Y125.218 E4.84393
G1 X149.009 Y124.956 E4.85354
G1 X148.942 Y124.473 E4.87138
G1 X148.885 Y124.192 E4.88187
G1 X148.761 Y123.724 E4.89958
G1 X148.668 Y123.452 E4.9101
G1 X148.487 Y123.005 E4.92774
G1 X148.363 Y122.746 E4.93825
G1 X148.126 Y122.322 E4.95602
G1 X147.972 Y122.08 E4.96651
G1 X147.82 Y121.866 E4.97612
G1 X147.514 Y121.483 E4.99405
G1 X147.217 Y121.164 E5.01
G1 X147.009 Y120.963 E5.02058
G1 X146.813 Y120.791 E5.03012
G1 X146.61 Y120.626 E5.03969
G1 X146.4 Y120.471 E5.04924
G1 X146.185 Y120.324 E5.05877
G1 X145.963 Y120.187 E5.06832
G1 X145.737 Y120.059 E5.07782
G1 X145.503 Y119.94 E5.08742
G1 X145.056 Y119.746 E5.10525
G1 X144.784 Y119.646 E5.11585
G1 X144.317 Y119.508 E5.13367
G1 X144.036 Y119.443 E5.14422
G1 X143.781 Y119.397 E5.1537
G1 X143.362 Y119.335 E5.1692
G1 X143.362 Y120.28 E5.20377
G1 X143.868 Y120.369 E5.22257
G1 X144.093 Y120.421 E5.23102
G1 X144.506 Y120.543 E5.24677
G1 X144.72 Y120.622 E5.25512
G1 X145.114 Y120.796 E5.27088
G1 X145.316 Y120.901 E5.27921
G1 X145.691 Y121.125 E5.29519
G1 X145.878 Y121.253 E5.30348
G1 X146.213 Y121.516 E5.31906
G1 X146.404 Y121.685 E5.32839
G1 X146.696 Y121.979 E5.34355
G1 X146.929 Y122.25 E5.35663
G1 X147.084 Y122.452 E5.36594
G1 X147.276 Y122.739 E5.37858
G1 X146.252 Y122.739 E5.41604
G1 X146.228 Y122.79 E5.4181
G1 X146.228 Y122.739 E5.41997
G1 X143.305 Y122.739 E5.52691
G1 X143.134 Y123.062 E5.54028
G1 X143.134 Y122.739 E5.5521
G1 X141.657 Y122.739 E5.60614
G1 X141.586 Y122.995 E5.61586
G1 X141.359 Y122.995 E5.62416
G1 X141.291 Y122.739 E5.63385
G1 X139.819 Y122.739 E5.68771
G1 X139.819 Y123.161 E5.70315
G1 X139.48 Y123.161 E5.71555
G1 X139.48 Y122.739 E5.73099
G1 X138.588 Y122.739 E5.76362
G1 X138.583 Y123.087 E5.77636
G1 X138.585 Y124.954 E5.84466
G1 X138.603 Y124.954 E5.84532
G1 X138.603 Y128.595 E5.97853
G1 X140.591 Y128.595 E6.05126
G1 X140.896 Y128.58 E6.06244
G1 X141.211 Y128.467 E6.07468
G1 X141.477 Y128.254 E6.08715
G1 X141.658 Y127.967 E6.09956
G1 X141.735 Y127.64 E6.11185
G1 X141.704 Y127.3 E6.12434
G1 X141.561 Y126.991 E6.1368
G1 X141.335 Y126.757 E6.1487
G1 X141.499 Y126.603 E6.15693
G1 X143.217 Y128.658 E6.25493
G1 X143.535 Y128.481 E6.26825
G1 X143.18 Y127.403 E6.30977
G1 X143.842 Y127.403 E6.33399
G1 X143.842 Y128.596 E6.37764
G1 X147.149 Y128.596 E6.49863
G1 X147.149 Y127.171 E6.55076
G1 X146.298 Y127.171 E6.5819
G1 X146.298 Y124.949 E6.66319
G1 X146.59 Y124.894 E6.67406
G1 X146.884 Y124.692 E6.68711
G1 X147.055 Y124.368 E6.70052
G1 X147.079 Y124.028 E6.71299
G1 X146.973 Y123.68 E6.7263
G1 X146.857 Y123.58 E6.7319
G1 X147.087 Y123.13 E6.75039
G1 X147.286 Y122.754 E6.76595
G1 X147.435 Y123.002 E6.77654
G1 X147.619 Y123.371 E6.79162
G1 X147.719 Y123.601 E6.8008
G1 X147.858 Y123.992 E6.81598
G1 X147.92 Y124.206 E6.82413
G1 X148.011 Y124.616 E6.8395
G1 X148.05 Y124.849 E6.84814
G1 X148.09 Y125.271 E6.86365
G1 X148.099 Y125.517 E6.87266
G1 X148.095 Y125.795 E6.88283
G1 X148.062 Y126.208 E6.89799
G1 X148.028 Y126.447 E6.90682
G1 X147.941 Y126.873 E6.92273
G1 X147.882 Y127.09 E6.93095
G1 X147.746 Y127.49 E6.94641
G1 X147.655 Y127.71 E6.95512
G1 X147.464 Y128.102 E6.97108
G1 X147.353 Y128.298 E6.97932
G1 X147.116 Y128.661 E6.99518
G1 X146.969 Y128.857 E7.00414
G1 X146.801 Y129.062 E7.01384
G1 X146.518 Y129.364 E7.02898
G1 X146.332 Y129.539 E7.03832
G1 X146.018 Y129.8 E7.05326
G1 X145.825 Y129.942 E7.06203
G1 X145.459 Y130.175 E7.0779
G1 X145.262 Y130.285 E7.08616
G1 X144.874 Y130.47 E7.10188
G1 X144.661 Y130.556 E7.11029
G1 X144.262 Y130.689 E7.12568
G1 X143.963 Y130.768 E7.13699
G1 X143.607 Y130.834 E7.15024
G1 X143.406 Y130.876 E7.15775
G1 X143.406 Y131.82 E7.19229
G1 F1500 E5.19229
G1 F300 Z0.4
G0 F6000 X138.163 Y127.163 Z0.4
;TYPE:WALL-INNER
G1 F300 Z0.2
G1 F1500 E7.19229
G1 F1200 X138.061 Y126.843 E7.20457
G1 X137.978 Y126.471 E7.21852
G1 X137.945 Y126.272 E7.2259
G1 X137.907 Y125.876 E7.24045
G1 X137.896 Y125.646 E7.24888
G1 X137.902 Y125.388 E7.25832
G1 X137.906 Y125.244 E7.26359
G1 X137.924 Y125.053 E7.27061
G1 X137.984 Y124.646 E7.28566
G1 X138.025 Y124.454 E7.29284
G1 X138.132 Y124.076 E7.30722
G1 X138.144 Y124.042 E7.30854
G1 X138.144 Y124.076
G1 X138.144 Y124.454 E7.31049
G1 X138.144 Y124.646 E7.3127
G1 X138.144 Y125.053 E7.31912
G1 X138.144 Y125.243 E7.32293
G1 X138.145 Y125.394 E7.32602
G1 X138.163 Y125.394 E7.32667
G1 X138.163 Y125.646 E7.33218
G1 X138.163 Y125.876 E7.33719
G1 X138.163 Y126.272 E7.34501
G1 X138.163 Y126.471 E7.34834
G1 X138.163 Y126.843 E7.35274
G1 X138.163 Y127.163 E7.35397
G1 F1500 E5.35397
G1 F300 Z0.4
G0 F6000 X140.824 Y131.53 Z0.4
;TYPE:WALL-OUTER
G1 F300 Z0.2
