;FLAVOR:Marlin
;TIME:2299
;Filament used: 1.54193m
;Layer height: 0.2
;MINX:68.62
;MINY:84.43
;MINZ:0.2
;MAXX:151.38
;MAXY:135.57
;MAXZ:1.2
;Generated with Cura_SteamEngine 4.8.0
M140 S110
M105
M190 S110
M104 S240
M105
M109 S240
M82 ;absolute extrusion mode
G28 ; home all axes
 M117 Purge extruder
 G92 E0 ; reset extruder
 G1 Z1.0 F3000 ; move z up little to prevent scratching of surface
 G1 X2 Y20 Z0.3 F5000.0 ; move to start-line position
 G1 X2 Y200.0 Z0.3 F1500.0 E15 ; draw 1st line
 G1 X2 Y200.0 Z0.4 F5000.0 ; move to side a little
 G1 X2 Y20 Z0.4 F1500.0 E30 ; draw 2nd line
 G92 E0 ; reset extruder
 G1 Z1.0 F3000 ; move z up little to prevent scratching of surface
G92 E0
G92 E0
G1 F1500 E-2
;LAYER_COUNT:5
;LAYER:0
M107
G1 F300 Z0.4
;MESH:GC_SATELITE.stl
G0 F6000 X79.496 Y97.873 Z0.4
;TYPE:WALL-INNER
G1 F300 Z0.2
G1 F1500 E0
G1 F1200 X79.371 Y97.979 E0.006
G1 X78.875 Y98.439 E0.03075
G1 X78.402 Y98.914 E0.05527
G1 X77.95 Y99.409 E0.0798
G1 X77.52 Y99.921 E0.10426
G1 X77.115 Y100.449 E0.1286
G1 X76.731 Y100.993 E0.15297
G1 X76.37 Y101.552 E0.17731
G1 X76.033 Y102.125 E0.20163
G1 X75.718 Y102.716 E0.22613
G1 X75.427 Y103.322 E0.25073
G1 X75.165 Y103.934 E0.27508
G1 X74.903 Y104.589 E0.30089
G1 X74.826 Y104.779 E0.3084
G1 X74.483 Y105.981 E0.35413
G1 X74.326 Y106.633 E0.37866
G1 X74.284 Y106.83 E0.38603
G1 X74.142 Y107.59 E0.41432
G1 X73.97 Y108.626 E0.45274
G1 X73.965 Y108.829 E0.46017
G1 X73.965 Y111.578 E0.56075
G1 X74.433 Y113.583 E0.63607
G1 X74.497 Y113.859 E0.64644
G1 X74.748 Y113.727 E0.65271
G1 X86.278 Y107.63 E1.12989
G1 X86.522 Y107.501 E1.13999
G1 X86.608 Y107.455 E1.14356
G1 X86.577 Y107.604 E1.14552
G1 X86.57 Y107.88 E1.15242
G1 X86.564 Y108.079 E1.1597
G1 X86.652 Y108.569 E1.17791
G1 X86.844 Y109.045 E1.19669
G1 X87.13 Y109.475 E1.21559
G1 X87.442 Y109.798 E1.23202
G1 X87.797 Y110.057 E1.24809
G1 X88.134 Y110.23 E1.26195
G1 X88.183 Y110.255 E1.26397
G1 X88.538 Y110.369 E1.27761
G1 X88.456 Y110.472
G1 X88.422 Y110.514 E1.27942
G1 X88.03 Y111.005 E1.30241
G1 X88.514 Y112.073 E1.34531
G1 X88.522 Y112.137 E1.34767
G1 X88.115 Y112.569 E1.36938
G1 X87.908 Y113.38 E1.40001
G1 X88.131 Y114.06 E1.42619
G1 X88.38 Y114.456 E1.4433
G1 X88.621 Y114.749 E1.45718
G1 X88.98 Y115.135 E1.47647
G1 X89.222 Y115.361 E1.48858
G1 X89.451 Y115.562 E1.49973
G1 X89.696 Y115.757 E1.51119
G1 X89.959 Y115.954 E1.52321
G1 X90.247 Y116.149 E1.53594
G1 X90.561 Y116.345 E1.54948
G1 X91.066 Y116.635 E1.57078
G1 X91.285 Y116.705 E1.5792
G1 X91.505 Y116.775 E1.58764
G1 X91.424 Y116.991 E1.59302
G1 X91.139 Y117.742 E1.62241
G1 X91.171 Y118.43 E1.6476
G1 X91.546 Y119.001 E1.6726
G1 X91.785 Y119.391 E1.68933
G1 X91.874 Y119.604 E1.69778
G1 X91.862 Y119.615 E1.69837
G1 X91.629 Y119.756 E1.70834
G1 X91.194 Y120.119 E1.72907
G1 X90.888 Y120.689 E1.75274
G1 X90.829 Y120.8 E1.75733
G1 X90.837 Y120.913 E1.76148
G1 X90.846 Y121.051 E1.76654
G1 X90.885 Y121.583 E1.78605
G1 X91.14 Y122.095 E1.80698
G1 X91.374 Y122.41 E1.82134
G1 X91.609 Y122.683 E1.83452
G1 X91.637 Y122.716 E1.8361
G1 X91.704 Y122.783 E1.83957
G1 X91.896 Y122.973 E1.84945
G1 X92.229 Y123.247 E1.86523
G1 X92.41 Y123.37 E1.87323
G1 X93.392 Y123.972 E1.91537
G1 X94.01 Y124.351 E1.9419
G1 X94.256 Y124.493 E1.95229
G1 X94.004 Y124.365 E1.95243
G1 X93.355 Y124.034 E1.95514
G1 X92.332 Y123.528 E1.96683
G1 X92.138 Y123.432 E1.97054
G1 X91.762 Y123.245 E1.97989
G1 X91.452 Y123.091 E1.9903
G1 X91.417 Y123.073 E1.99156
G1 X91.377 Y123.056 E1.99315
G1 X91.089 Y122.927 E2.0047
G1 X90.687 Y122.784 E2.02031
G1 X90.211 Y122.641 E2.03849
G1 X89.414 Y122.686 E2.0677
G1 X89.067 Y122.945 E2.08354
G1 X88.947 Y123.035 E2.08903
G1 X88.777 Y122.997 E2.0954
G1 X88.717 Y122.983 E2.09766
G1 X88.707 Y122.898 E2.10079
G1 X88.698 Y122.747 E2.10632
G1 X88.69 Y122.615 E2.11116
G1 X88.721 Y122.318 E2.12209
G1 X88.766 Y122.3 E2.12386
G1 X89.023 Y122.262 E2.13336
G1 X89.546 Y122.135 E2.15305
G1 X90.155 Y121.674 E2.181
G1 X90.411 Y121.068 E2.20507
G1 X90.465 Y120.94 E2.20977
G1 X90.46 Y120.818 E2.21357
G1 X90.455 Y120.692 E2.21783
G1 X90.436 Y120.313 E2.23171
G1 X90.307 Y119.827 E2.25011
G1 X90.194 Y119.496 E2.2629
G1 X90.038 Y119.157 E2.27656
G1 X89.881 Y118.899 E2.28761
G1 X88.793 Y117.414 E2.35496
G1 X87.631 Y115.885 E2.42522
G1 X87.266 Y115.527 E2.44392
G1 X86.82 Y115.286 E2.46247
G1 X85.537 Y114.864 E2.51189
G1 X85.308 Y114.789 E2.5207
G1 X85.257 Y115.024 E2.52623
G1 X85.256 Y115.025 E2.52628
G1 X84.969 Y116.312 E2.57452
G1 X84.944 Y116.829 E2.59346
G1 X85.016 Y117.313 E2.61136
G1 X85.017 Y117.321 E2.61166
G1 X85.042 Y117.711 E2.62595
G1 X84.922 Y117.732 E2.63041
G1 X84.914 Y117.733 E2.63071
G1 X84.518 Y117.784 E2.64531
G1 X83.867 Y118.073 E2.67137
G1 X83.383 Y118.714 E2.70076
G1 X83.286 Y119.44 E2.72756
G1 X83.414 Y120.059 E2.75068
G1 X83.561 Y120.534 E2.76888
G1 X83.711 Y120.911 E2.78372
G1 X83.862 Y121.219 E2.79627
G1 X83.992 Y121.442 E2.80571
G1 X84.766 Y122.621 E2.85731
G1 X85.844 Y124.172 E2.92642
G1 X85.999 Y124.395 E2.93635
G1 X86.105 Y124.519 E2.94232
G1 X86.251 Y124.689 E2.95052
G1 X86.288 Y124.724 E2.95238
G1 X86.573 Y124.992 E2.9667
G1 X86.608 Y125.025 E2.96846
G1 X86.841 Y125.159 E2.97829
G1 X87 Y125.251 E2.98501
G1 X87.176 Y125.352 E2.99244
G1 X88.203 Y125.424 E3.0301
G1 X88.58 Y124.797 E3.05687
G1 X88.588 Y124.784 E3.05743
G1 X88.709 Y124.583 E3.06601
G1 X88.945 Y124.998 E3.07745
G1 X88.954 Y125.01 E3.07798
G1 X89.174 Y125.292 E3.09107
G1 X89.248 Y125.399 E3.09583
G1 X89.547 Y125.9 E3.11717
G1 X89.683 Y126.189 E3.12886
G1 X89.709 Y126.372 E3.13562
G1 X89.587 Y126.463 E3.14119
G1 X89.263 Y126.63 E3.15453
G1 X88.829 Y126.985 E3.17504
G1 X88.479 Y127.513 E3.19822
G1 X88.334 Y128.152 E3.22219
G1 X88.409 Y128.76 E3.2446
G1 X88.626 Y129.254 E3.26434
G1 X88.922 Y129.654 E3.28255
G1 X89.216 Y129.948 E3.29776
G1 X89.594 Y130.267 E3.31586
G1 X89.973 Y130.537 E3.33288
G1 X90.217 Y130.685 E3.34332
G1 X92.667 Y132.057 E3.44606
G1 X95.354 Y133.548 E3.55848
G1 X97.125 Y133.548 E3.62328
G1 X97.174 Y132.105 E3.6761
G1 X97.083 Y131.542 E3.69697
G1 X96.773 Y131.054 E3.71812
G1 X96.56 Y130.773 E3.73102
G1 X96.458 Y130.616 E3.73787
G1 X96.052 Y129.875 E3.76878
G1 X95.929 Y129.619 E3.77917
G1 X95.835 Y129.386 E3.78837
G1 X95.811 Y129.257 E3.79317
G1 X96.041 Y129.056 E3.80434
G1 X96.369 Y128.853 E3.81845
G1 X96.774 Y128.478 E3.83865
G1 X97.1 Y127.926 E3.8621
G1 X97.111 Y127.838 E3.86535
G1 X97.198 Y127.199 E3.88894
G1 X97.001 Y126.555 E3.91358
G1 X96.698 Y126.099 E3.93361
G1 X96.573 Y125.969 E3.94021
G1 X96.417 Y125.806 E3.94846
G1 X96.114 Y125.55 E3.96298
G1 X95.904 Y125.399 E3.97244
G1 X96.138 Y125.48 E3.9731
G1 X96.153 Y125.486
G1 X96.454 Y125.527 E3.97687
G1 X96.677 Y125.557 E3.9837
G1 X98.574 Y125.816 E4.05375
G1 X98.634 Y125.824 E4.05596
G1 X98.629 Y125.808 E4.05657
G1 X98.511 Y125.481 E4.06929
G1 X98.491 Y125.424 E4.0715
G1 X98.364 Y125.072 E4.08519
G1 X98.326 Y124.967 E4.08928
G1 X98.37 Y125.069 E4.08931
G1 X98.628 Y125.438 E4.10279
G1 X98.822 Y125.653 E4.10677
G1 X98.88 Y125.717 E4.10762
G1 X99.141 Y125.966 E4.12082
G1 X99.444 Y126.209 E4.13503
G1 X99.767 Y126.429 E4.14933
G1 X99.913 Y126.518 E4.15559
G1 X102.075 Y127.749 E4.24661
G1 X104.249 Y128.969 E4.33782
G1 X104.589 Y129.146 E4.35184
G1 X104.612 Y129.154 E4.35273
G1 X105.025 Y129.315 E4.36895
G1 X105.076 Y129.321 E4.37083
G1 X105.474 Y129.374 E4.38552
G1 X105.513 Y129.38 E4.38696
G1 X106.848 Y129.323 E4.43585
G1 X107.078 Y129.314 E4.44427
G1 X107.056 Y129.085 E4.44963
G1 X106.925 Y127.746 E4.49885
G1 X106.789 Y127.292 E4.51619
G1 X106.454 Y126.782 E4.53852
G1 X105.997 Y126.181 E4.56614
G1 X105.848 Y125.955 E4.57604
G1 X105.683 Y125.619 E4.58974
G1 X105.6 Y125.254 E4.60343
G1 X105.633 Y125.06 E4.61063
G1 X105.785 Y124.957 E4.61735
G1 X106.089 Y124.799 E4.62989
G1 X106.516 Y124.434 E4.65044
G1 X106.834 Y123.906 E4.67299
G1 X107.034 Y123.13 E4.70231
G1 X106.775 Y122.487 E4.72767
G1 X106.557 Y122.093 E4.74414
G1 X106.34 Y121.848 E4.75612
G1 X106.021 Y121.568 E4.77165
G1 X105.624 Y121.255 E4.79014
G1 X105.279 Y121.021 E4.80539
G1 X105.01 Y120.866 E4.81675
G1 X103.108 Y119.888 E4.895
G1 X101.814 Y119.245 E4.94786
G1 X101.214 Y118.951 E4.97231
G1 X100.879 Y118.804 E4.98569
G1 X100.631 Y118.716 E4.99532
G1 X100.472 Y118.66 E5.00149
G1 X100.314 Y118.616 E5.00749
G1 X99.98 Y118.523 E5.02017
G1 X99.917 Y118.521 E5.02248
G1 X99.385 Y118.502 E5.04196
G1 X99.22 Y118.495 E5.048
G1 X99.088 Y118.599 E5.05415
G1 X98.367 Y119.17 E5.0878
G1 X98.352 Y119.764 E5.10953
G1 X98.352 Y119.785 E5.1103
G1 X98.342 Y120.188 E5.12505
G1 X98.393 Y120.282 E5.12896
G1 X98.566 Y120.598 E5.14214
G1 X98.666 Y120.781 E5.14977
G1 X98.884 Y121.071 E5.16305
G1 X98.995 Y121.236 E5.17032
G1 X99.32 Y121.841 E5.19545
G1 X99.463 Y122.185 E5.20908
G1 X99.444 Y122.292 E5.21306
G1 X99.386 Y122.332 E5.21563
G1 X99.094 Y122.5 E5.22796
G1 X98.744 Y122.76 E5.24391
G1 X98.357 Y123.195 E5.26521
G1 X98.2 Y123.596 E5.28097
G1 X98.138 Y123.755 E5.28721
G1 X98.104 Y123.841 E5.29059
G1 X98.112 Y124 E5.29642
G1 X98.135 Y124.433 E5.31228
G1 X98.134 Y124.431 E5.31236
G1 X98.128 Y124.414 E5.31302
G1 X97.982 Y124.007 E5.32333
G1 X97.945 Y123.895 E5.3243
G1 X97.862 Y123.648 E5.33092
G1 X97.793 Y123.492 E5.33622
G1 X97.687 Y123.255 E5.34572
G1 X97.481 Y122.944 E5.35937
G1 X97.329 Y122.699 E5.36992
G1 X97.189 Y122.401 E5.38196
G1 X97.166 Y122.214 E5.38885
G1 X97.696 Y121.842 E5.41255
G1 X98.142 Y121.198 E5.44121
G1 X98.168 Y120.753 E5.45751
G1 X98.189 Y120.394 E5.46769
G1 X98.139 Y120.274 E5.47035
G1 X97.929 Y119.775 E5.48563
G1 X97.916 Y119.759 E5.48637
G1 X97.572 Y119.336 E5.50632
G1 X97.286 Y119.047 E5.5212
G1 X97.014 Y118.811 E5.53437
G1 X96.708 Y118.598 E5.54801
G1 X96.589 Y118.526 E5.5531
G1 X95.114 Y117.715 E5.61468
G1 X93.532 Y116.888 E5.67999
G1 X93.127 Y116.743 E5.69573
G1 X92.953 Y116.69 E5.70239
G1 X92.578 Y116.576 E5.71673
G1 X92.872 Y116.317 E5.72479
G1 X93.352 Y115.892 E5.74825
G1 X92.708 Y114.609 E5.80077
G1 X92.687 Y114.55 E5.80306
G1 X92.871 Y114.403 E5.81168
G1 X93.24 Y113.861 E5.83567
G1 X93.315 Y113.037 E5.86594
G1 X93.017 Y112.38 E5.89233
G1 X92.684 Y111.985 E5.91123
G1 X92.538 Y111.867 E5.9181
G1 X91.485 Y111.105 E5.96566
G1 X90.311 Y110.294 E6.01786
G1 X90.3 Y110.287 E6.01834
G1 X90.245 Y110.249 E6.02078
G1 X90.137 Y110.224 E6.02484
G1 X90.097 Y110.215 E6.02634
G1 X90.142 Y110.198
G1 X90.191 Y110.167
G1 X90.536 Y109.945 E6.038
G1 X90.546 Y109.936 E6.03849
G1 X90.878 Y109.627 E6.05509
G1 X91.179 Y109.217 E6.0737
G1 X91.392 Y108.725 E6.09331
G1 X91.477 Y108.195 E6.11295
G1 X91.43 Y107.647 E6.13307
G1 X91.251 Y107.136 E6.15288
G1 X91.087 Y106.796 E6.16669
G1 X90.885 Y106.462 E6.18097
G1 X90.567 Y106.08 E6.19916
G1 X90.325 Y105.91 E6.20998
G1 X90.164 Y105.796 E6.2172
G1 X89.946 Y105.689 E6.22608
G1 X90.072 Y105.623 E6.22635
G1 X90.246 Y105.531 E6.23184
G1 X100.967 Y99.856 E6.67565
G1 X102.034 Y98.649 E6.73459
G1 X102.233 Y98.423 E6.7456
G1 X101.956 Y98.304 E6.75217
G1 X100.675 Y97.752 E6.8032
G1 X100.186 Y97.345 E6.82648
G1 X99.632 Y96.926 E6.85189
G1 X99.077 Y96.539 E6.87665
G1 X98.517 Y96.186 E6.90087
G1 X97.951 Y95.858 E6.9248
G1 X97.378 Y95.558 E6.94846
G1 X96.794 Y95.282 E6.9721
G1 X96.2 Y95.032 E6.99568
G1 X95.592 Y94.804 E7.01943
G1 X94.968 Y94.599 E7.04346
G1 X94.325 Y94.416 E7.06792
G1 X93.662 Y94.258 E7.09286
G1 X92.976 Y94.122 E7.11844
G1 X92.261 Y94.011 E7.14492
G1 X91.522 Y93.926 E7.17213
G1 X90.883 Y93.877 E7.19558
G1 X90.268 Y93.86 E7.21809
G1 X89.645 Y93.865 E7.24088
G1 X89.012 Y93.898 E7.26407
G1 X88.525 Y93.943 E7.28197
G1 X88.374 Y93.957 E7.28751
G1 X88.152 Y93.986 E7.29571
G1 X88.064 Y93.998 E7.29896
G1 X88.135 Y93.86 E7.30089
G1 X88.194 Y93.721 E7.30543
G1 X89.403 Y90.871 E7.41869
G1 X91.153 Y86.693 E7.58442
G1 X91.28 Y86.39 E7.59644
G1 X90.952 Y86.39 E7.60344
G1 X90.951 Y86.39 E7.60348
G1 X75.438 Y86.39 E8.17104
G1 X75.437 Y86.39 E8.17108
G1 X75.088 Y86.39 E8.18385
G1 X75.24 Y86.705 E8.19123
G1 X76.371 Y89.039 E8.28611
G1 X76.858 Y90.151 E8.33053
G1 X77.492 Y91.764 E8.39394
G1 X78.005 Y93.189 E8.44935
G1 X78.718 Y95.393 E8.5341
G1 X79.496 Y97.873 E8.62919
G0 F6000 X79.918 Y97.747
G1 F1200 X80.039 Y97.674 E8.63436
G1 X80.201 Y97.576 E8.64129
G1 X80.6 Y97.334 E8.65836
G1 X80.886 Y97.16 E8.67061
G1 X80.968 Y97.102 E8.67429
G1 X81.134 Y96.971 E8.68202
G1 X81.404 Y96.757 E8.69463
G1 X81.669 Y96.567 E8.70656
G1 X81.814 Y96.463 E8.71308
G1 X82.121 Y96.262 E8.72651
G1 X82.248 Y96.178 E8.73208
G1 X82.681 Y95.918 E8.75056
G1 X82.706 Y95.904 E8.75161
G1 X83.119 Y95.679 E8.76881
G1 X83.306 Y95.587 E8.77644
G1 X83.585 Y95.449 E8.78783
G1 X83.919 Y95.3 E8.80121
G1 X84.079 Y95.228 E8.80763
G1 X84.545 Y95.043 E8.82597
G1 X84.581 Y95.028 E8.8274
G1 X85.098 Y94.846 E8.84745
G1 X85.192 Y94.818 E8.85104
G1 X85.679 Y94.668 E8.86968
G1 X85.834 Y94.627 E8.87555
G1 X86.268 Y94.512 E8.89197
G1 X86.476 Y94.465 E8.89978
G1 X86.949 Y94.356 E8.91753
G1 X87.025 Y94.317 E8.92066
G1 X87.351 Y94.147 E8.93411
G1 X87.388 Y94.107 E8.9361
G1 X87.664 Y93.814 E8.95083
G1 X87.737 Y93.673 E8.95664
G1 X88.998 Y90.7 E9.07479
G1 X90.492 Y87.133 E9.21628
G1 X90.619 Y86.83 E9.2283
G1 X90.291 Y86.83 E9.2353
G1 X90.29 Y86.83 E9.23534
G1 X76.14 Y86.83 E9.75304
G1 X76.139 Y86.83 E9.75307
G1 X75.79 Y86.83 E9.76584
G1 X75.942 Y87.145 E9.77322
G1 X76.774 Y88.862 E9.84302
G1 X77.268 Y89.99 E9.88808
G1 X77.902 Y91.603 E9.95149
G1 X78.478 Y93.205 E10.01377
G1 X78.474 Y93.209 E10.01398
G1 X79.138 Y95.261 E10.09288
G1 X79.862 Y97.566 E10.18128
G1 X79.918 Y97.747 E10.18635
G0 F6000 X80.17 Y97.08
;TYPE:WALL-OUTER
G1 F1200 X80.643 Y96.793 E10.2066
G1 X80.703 Y96.75 E10.2093
G1 X81.148 Y96.399 E10.23003
G1 X81.572 Y96.095 E10.24912
G1 X82.006 Y95.81 E10.26812
G1 X82.454 Y95.541 E10.28724
G1 X82.924 Y95.284 E10.30683
G1 X83.396 Y95.051 E10.32609
G1 X83.904 Y94.824 E10.34645
G1 X84.418 Y94.619 E10.36669
G1 X84.969 Y94.425 E10.38807
G1 X85.55 Y94.247 E10.4103
G1 X86.17 Y94.083 E10.43376
G1 X86.796 Y93.94 E10.45725
G1 X87.082 Y93.791 E10.46905
G1 X87.301 Y93.558 E10.48075
G1 X87.338 Y93.486 E10.48371
G1 X88.593 Y90.529 E10.60124
G1 X89.958 Y87.27 E10.73051
G1 X76.492 Y87.27 E11.22318
G1 X77.177 Y88.685 E11.2807
G1 X77.678 Y89.829 E11.32639
G1 X78.312 Y91.442 E11.3898
G1 X78.787 Y92.765 E11.44122
G1 X79.923 Y91.856 E11.49445
G1 X79.05 Y89.402 E11.58975
G1 X79.09 Y89.455 E11.59218
G1 X79.35 Y89.825 E11.60872
G1 X79.607 Y90.224 E11.62609
G1 X79.857 Y90.65 E11.64416
G1 X80.103 Y91.107 E11.66315
G1 X80.345 Y91.602 E11.68331
G1 X80.583 Y92.143 E11.70493
G1 X80.824 Y92.751 E11.72886
G1 X81.06 Y93.419 E11.75478
G1 X81.292 Y94.158 E11.78312
G1 X81.277 Y94.279 E11.78758
G1 X81.176 Y94.403 E11.79343
G1 X80.898 Y94.595 E11.80579
G1 X80.062 Y92.244 E11.89708
G1 X78.976 Y93.33 E11.95327
G1 X79.558 Y95.129 E12.02245
G1 X80.17 Y97.08 E12.09725
G1 F1500 E10.09725
G1 F300 Z0.4
G0 F6000 X147.275 Y108.388 Z0.4
;TYPE:WALL-INNER
G1 F300 Z0.2
G1 F1500 E12.09725
G1 F1200 X147.39 Y108.471 E12.10244
G1 X148.219 Y108.537 E12.13287
G1 X148.901 Y108.172 E12.16117
G1 X149.383 Y107.642 E12.18738
G1 X149.41 Y107.541 E12.19121
G1 X149.599 Y106.858 E12.21713
G1 X149.428 Y106.19 E12.24236
G1 X149.251 Y105.873 E12.25564
G1 X149.178 Y105.705 E12.26235
G1 X149.119 Y105.436 E12.27242
G1 X149.127 Y105.147 E12.283
G1 X149.154 Y105.02 E12.28775
G1 X149.257 Y104.722 E12.29928
G1 X149.379 Y104.323 E12.31455
G1 X149.396 Y103.852 E12.33179
G1 X149.348 Y103.285 E12.35261
G1 X148.886 Y102.613 E12.38245
G1 X148.185 Y102.285 E12.41076
G1 X147.42 Y102.429 E12.43924
G1 X147.341 Y102.467 E12.44245
G1 X147.337 Y102.451
G1 X147.232 Y102.047 E12.45369
G1 X146.557 Y101.504 E12.48539
G1 X145.75 Y101.31 E12.51575
G1 X144.959 Y101.554 E12.54604
G1 X144.5 Y102.012 E12.56976
G1 X144.39 Y102.177 E12.57702
G1 X144.167 Y102.57 E12.59355
G1 X143.963 Y103.003 E12.61106
G1 X143.799 Y103.442 E12.62821
G1 X143.672 Y103.894 E12.64538
G1 X143.587 Y104.343 E12.6621
G1 X143.583 Y104.36 E12.66274
G1 X143.582 Y104.377 E12.66336
G1 X143.532 Y104.824 E12.67982
G1 X143.529 Y104.842 E12.68049
G1 X143.515 Y105.25 E12.69542
G1 X143.523 Y105.71 E12.71226
G1 X143.575 Y106.189 E12.72988
G1 X143.664 Y106.656 E12.74728
G1 X143.793 Y107.109 E12.76451
G1 X143.958 Y107.558 E12.78201
