;FLAVOR:Marlin
;TIME:2509
;Filament used: 2.0355m
;Layer height: 0.2
;MINX:67.42
;MINY:83.23
;MINZ:0.2
;MAXX:152.58
;MAXY:136.77
;MAXZ:2.2
;Generated with Cura_SteamEngine 4.8.0
M140 S110
M105
M190 S110
M104 S240
M105
M109 S240
M82 ;absolute extrusion mode
G28 ; home all axes
 M117 Purge extruder
 G92 E0 ; reset extruder
 G1 Z1.0 F3000 ; move z up little to prevent scratching of surface
 G1 X2 Y20 Z0.3 F5000.0 ; move to start-line position
 G1 X2 Y200.0 Z0.3 F1500.0 E15 ; draw 1st line
 G1 X2 Y200.0 Z0.4 F5000.0 ; move to side a little
 G1 X2 Y20 Z0.4 F1500.0 E30 ; draw 2nd line
 G92 E0 ; reset extruder
 G1 Z1.0 F3000 ; move z up little to prevent scratching of surface
G92 E0
G92 E0
G1 F1500 E-2
;LAYER_COUNT:10
;LAYER:0
M107
G1 F300 Z0.4
;MESH:GIFT_CARD_BASE.stl
G0 F6000 X72.247 Y135.89 Z0.4
;TYPE:WALL-INNER
G1 F300 Z0.2
G1 F1500 E0
G1 F1200 X71.846 Y135.872 E0.01469
G1 X71.547 Y135.834 E0.02571
G1 X71.197 Y135.758 E0.03882
G1 X70.872 Y135.655 E0.05129
G1 X70.565 Y135.53 E0.06342
G1 X70.258 Y135.371 E0.07607
G1 X69.977 Y135.193 E0.08824
G1 X69.689 Y134.973 E0.1015
G1 X69.46 Y134.764 E0.11284
G1 X69.215 Y134.498 E0.12607
G1 X69.011 Y134.233 E0.1383
G1 X68.832 Y133.952 E0.15049
G1 X68.664 Y133.633 E0.16368
G1 X68.546 Y133.349 E0.17494
G1 X68.435 Y133 E0.18834
G1 X68.362 Y132.673 E0.20059
G1 X68.319 Y132.355 E0.21233
G1 X68.301 Y131.961 E0.22676
G1 X68.3 Y88.056 E1.83308
G1 X68.317 Y87.664 E1.84743
G1 X68.358 Y87.342 E1.85931
G1 X68.423 Y87.036 E1.87075
G1 X68.521 Y86.713 E1.8831
G1 X68.634 Y86.433 E1.89415
G1 X68.793 Y86.114 E1.90719
G1 X68.972 Y85.824 E1.91966
G1 X69.157 Y85.572 E1.9311
G1 X69.385 Y85.313 E1.94372
G1 X69.61 Y85.097 E1.95513
G1 X69.872 Y84.884 E1.96749
G1 X70.159 Y84.688 E1.9802
G1 X70.44 Y84.531 E1.99198
G1 X70.735 Y84.397 E2.00383
G1 X71.034 Y84.291 E2.01544
G1 X71.39 Y84.197 E2.02891
G1 X71.701 Y84.142 E2.04046
G1 X72.015 Y84.116 E2.05199
G1 X72.23 Y84.11 E2.05986
G1 X147.753 Y84.11 E4.82296
G1 X148.154 Y84.128 E4.83764
G1 X148.453 Y84.166 E4.84867
G1 X148.803 Y84.242 E4.86177
G1 X149.128 Y84.345 E4.87425
G1 X149.435 Y84.47 E4.88637
G1 X149.74 Y84.628 E4.89894
G1 X150.025 Y84.808 E4.91127
G1 X150.316 Y85.031 E4.92469
G1 X150.534 Y85.229 E4.93546
G1 X150.785 Y85.502 E4.94903
G1 X150.989 Y85.767 E4.96126
G1 X151.168 Y86.046 E4.97339
G1 X151.336 Y86.367 E4.98665
G1 X151.454 Y86.651 E4.9979
G1 X151.565 Y87 E5.0113
G1 X151.638 Y87.329 E5.02363
G1 X151.681 Y87.65 E5.03548
G1 X151.699 Y88.019 E5.04899
G1 X151.7 Y131.945 E6.65608
G1 X151.685 Y132.319 E6.66977
G1 X151.644 Y132.65 E6.68197
G1 X151.578 Y132.958 E6.6935
G1 X151.478 Y133.284 E6.70597
G1 X151.363 Y133.573 E6.71735
G1 X151.207 Y133.886 E6.73015
G1 X151.031 Y134.172 E6.74243
G1 X150.843 Y134.428 E6.75405
G1 X150.615 Y134.687 E6.76668
G1 X150.39 Y134.903 E6.77809
G1 X150.119 Y135.123 E6.79086
G1 X149.852 Y135.306 E6.8027
G1 X149.56 Y135.469 E6.81494
G1 X149.265 Y135.603 E6.82679
G1 X148.966 Y135.709 E6.8384
G1 X148.61 Y135.803 E6.85187
G1 X148.299 Y135.858 E6.86342
G1 X147.985 Y135.884 E6.87495
G1 X147.77 Y135.89 E6.88282
G1 X72.247 Y135.89 E9.64592
G0 F6000 X72.228 Y136.33
G1 F1200 X71.818 Y136.312 E9.66093
G1 X71.466 Y136.267 E9.67391
G1 X71.089 Y136.185 E9.68803
G1 X70.723 Y136.069 E9.70208
G1 X70.37 Y135.925 E9.71603
G1 X70.044 Y135.756 E9.72946
G1 X69.723 Y135.553 E9.74336
G1 X69.406 Y135.311 E9.75795
G1 X69.15 Y135.077 E9.77064
G1 X68.881 Y134.785 E9.78516
G1 X68.648 Y134.483 E9.79912
G1 X68.451 Y134.174 E9.81252
G1 X68.269 Y133.827 E9.82686
G1 X68.259 Y133.802 E9.82784
G1 X68.141 Y133.518 E9.8391
G1 X68.131 Y133.494 E9.84005
G1 X68.128 Y133.483 E9.84046
G1 X68.011 Y133.118 E9.85449
G1 X68.007 Y133.096 E9.85531
G1 X67.934 Y132.77 E9.86753
G1 X67.928 Y132.746 E9.86843
G1 X67.927 Y132.732 E9.86895
G1 X67.88 Y132.39 E9.88158
G1 X67.861 Y131.981 E9.89656
G1 X67.86 Y88.037 E11.5043
G1 X67.877 Y87.636 E11.51898
G1 X67.922 Y87.28 E11.53211
G1 X67.998 Y86.921 E11.54554
G1 X68.105 Y86.57 E11.55896
G1 X68.234 Y86.249 E11.57162
G1 X68.41 Y85.896 E11.58605
G1 X68.601 Y85.586 E11.59937
G1 X68.814 Y85.296 E11.61254
G1 X69.065 Y85.01 E11.62646
G1 X69.32 Y84.765 E11.6394
G1 X69.612 Y84.528 E11.65315
G1 X69.923 Y84.316 E11.66692
G1 X70.244 Y84.136 E11.68039
G1 X70.562 Y83.992 E11.69316
G1 X70.913 Y83.867 E11.70679
G1 X71.286 Y83.769 E11.7209
G1 X71.313 Y83.765 E11.7219
G1 X71.623 Y83.71 E11.73342
G1 X71.644 Y83.706 E11.7342
G1 X71.664 Y83.705 E11.73493
G1 X71.977 Y83.679 E11.74643
G1 X72.001 Y83.676 E11.74731
G1 X72.218 Y83.67 E11.75525
G1 X147.772 Y83.67 E14.51948
G1 X148.182 Y83.688 E14.5345
G1 X148.534 Y83.733 E14.54748
G1 X148.911 Y83.815 E14.5616
G1 X149.277 Y83.931 E14.57564
G1 X149.63 Y84.075 E14.58959
G1 X149.954 Y84.243 E14.60294
G1 X150.277 Y84.447 E14.61692
G1 X150.594 Y84.69 E14.63153
G1 X150.611 Y84.706 E14.63239
G1 X150.849 Y84.922 E14.64415
G1 X151.119 Y85.215 E14.65872
G1 X151.352 Y85.517 E14.67268
G1 X151.548 Y85.824 E14.68601
G1 X151.731 Y86.173 E14.70042
G1 X151.741 Y86.198 E14.70141
G1 X151.859 Y86.482 E14.71266
G1 X151.869 Y86.506 E14.71361
G1 X151.872 Y86.517 E14.71403
G1 X151.989 Y86.882 E14.72805
G1 X151.993 Y86.904 E14.72887
G1 X152.072 Y87.254 E14.742
G1 X152.119 Y87.606 E14.75499
G1 X152.137 Y87.997 E14.76931
G1 X152.139 Y88.019 E14.77012
G1 X152.14 Y131.963 E16.37786
G1 X152.124 Y132.355 E16.39221
G1 X152.079 Y132.719 E16.40563
G1 X152.003 Y133.075 E16.41895
G1 X151.894 Y133.43 E16.43254
G1 X151.766 Y133.751 E16.44518
G1 X151.59 Y134.104 E16.45961
G1 X151.399 Y134.414 E16.47293
G1 X151.186 Y134.704 E16.4861
G1 X150.935 Y134.99 E16.50002
G1 X150.68 Y135.235 E16.51296
G1 X150.381 Y135.477 E16.52703
G1 X150.085 Y135.68 E16.54016
G1 X149.756 Y135.864 E16.55395
G1 X149.438 Y136.008 E16.56672
G1 X149.087 Y136.133 E16.58036
G1 X148.714 Y136.231 E16.59447
G1 X148.687 Y136.235 E16.59546
G1 X148.377 Y136.29 E16.60698
G1 X148.356 Y136.294 E16.60777
G1 X148.336 Y136.295 E16.6085
G1 X148.023 Y136.321 E16.61999
G1 X147.999 Y136.324 E16.62087
G1 X147.782 Y136.33 E16.62882
G1 X72.228 Y136.33 E19.39305
G0 F6000 X72.209 Y136.77
;TYPE:WALL-OUTER
G1 F1200 X71.79 Y136.752 E19.40839
G1 X71.384 Y136.7 E19.42337
G1 X70.974 Y136.61 E19.43872
G1 X70.577 Y136.485 E19.45395
G1 X70.184 Y136.324 E19.46949
G1 X69.826 Y136.139 E19.48423
G1 X69.469 Y135.913 E19.49969
G1 X69.129 Y135.653 E19.51535
G1 X68.834 Y135.384 E19.52996
G1 X68.547 Y135.072 E19.54547
G1 X68.285 Y134.733 E19.56114
G1 X68.07 Y134.396 E19.57577
G1 X67.872 Y134.017 E19.59141
G1 X67.717 Y133.644 E19.60619
G1 X67.587 Y133.236 E19.62186
G1 X67.494 Y132.821 E19.63742
G1 X67.441 Y132.422 E19.65214
G1 X67.421 Y132.002 E19.66752
G1 X67.42 Y88.019 E21.27669
G1 X67.437 Y87.606 E21.29182
G1 X67.486 Y87.215 E21.30623
G1 X67.573 Y86.807 E21.3215
G1 X67.689 Y86.427 E21.33603
G1 X67.836 Y86.06 E21.3505
G1 X68.022 Y85.688 E21.36571
G1 X68.235 Y85.341 E21.38061
G1 X68.473 Y85.018 E21.39529
G1 X68.745 Y84.707 E21.4104
G1 X69.03 Y84.433 E21.42487
G1 X69.352 Y84.172 E21.44003
G1 X69.688 Y83.943 E21.45491
G1 X70.039 Y83.747 E21.46962
G1 X70.406 Y83.58 E21.48437
G1 X70.786 Y83.445 E21.49912
G1 X71.182 Y83.341 E21.5141
G1 X71.588 Y83.27 E21.52918
G1 X71.985 Y83.236 E21.54376
G1 X72.206 Y83.23 E21.55185
G1 X147.791 Y83.23 E24.31721
G1 X148.21 Y83.248 E24.33256
G1 X148.616 Y83.3 E24.34753
G1 X149.026 Y83.39 E24.36289
G1 X149.423 Y83.515 E24.37812
G1 X149.816 Y83.676 E24.39366
G1 X150.172 Y83.86 E24.40832
G1 X150.531 Y84.087 E24.42386
G1 X150.871 Y84.347 E24.43952
G1 X151.165 Y84.615 E24.45407
G1 X151.453 Y84.928 E24.46963
G1 X151.715 Y85.267 E24.48531
G1 X151.929 Y85.602 E24.49985
G1 X152.128 Y85.983 E24.51558
G1 X152.283 Y86.356 E24.53036
G1 X152.413 Y86.764 E24.54602
G1 X152.506 Y87.179 E24.56158
G1 X152.559 Y87.578 E24.57631
G1 X152.579 Y87.998 E24.59169
G1 X152.58 Y131.981 E26.20086
G1 X152.563 Y132.391 E26.21587
G1 X152.514 Y132.785 E26.2304
G1 X152.428 Y133.188 E26.24548
G1 X152.311 Y133.573 E26.2602
G1 X152.164 Y133.94 E26.27466
G1 X151.978 Y134.312 E26.28988
G1 X151.765 Y134.659 E26.30477
G1 X151.527 Y134.982 E26.31945
G1 X151.255 Y135.293 E26.33457
G1 X150.97 Y135.567 E26.34903
G1 X150.649 Y135.827 E26.36415
G1 X150.312 Y136.057 E26.37907
G1 X149.961 Y136.253 E26.39378
G1 X149.594 Y136.42 E26.40853
G1 X149.214 Y136.555 E26.42329
G1 X148.818 Y136.659 E26.43827
G1 X148.412 Y136.73 E26.45335
G1 X148.015 Y136.764 E26.46792
G1 X147.794 Y136.77 E26.47601
G1 X72.209 Y136.77 E29.24138
G0 F6000 X72.219 Y136.287
G0 X72.266 Y135.46
;TYPE:SKIN
G1 F1200 X71.87 Y135.442 E29.25588
G1 X71.626 Y135.412 E29.26487
G1 X71.306 Y135.342 E29.27686
G1 X71.017 Y135.25 E29.28796
G1 X70.746 Y135.14 E29.29866
G1 X70.47 Y134.997 E29.31003
G1 X70.232 Y134.846 E29.32034
G1 X69.951 Y134.631 E29.33329
G1 X69.768 Y134.465 E29.34233
G1 X69.538 Y134.215 E29.35475
G1 X69.369 Y133.996 E29.36487
G1 X69.207 Y133.741 E29.37593
G1 X69.048 Y133.437 E29.38848
G1 X68.954 Y133.211 E29.39743
G1 X68.851 Y132.887 E29.40987
G1 X68.783 Y132.585 E29.4212
G1 X68.749 Y132.324 E29.43083
G1 X68.731 Y131.961 E29.44412
G1 X68.73 Y88.075 E31.04974
G1 X68.747 Y87.683 E31.0641
G1 X68.783 Y87.405 E31.07436
G1 X68.835 Y87.161 E31.08348
G1 X68.929 Y86.851 E31.09533
G1 X69.029 Y86.604 E31.10508
G1 X69.164 Y86.332 E31.11619
G1 X69.338 Y86.051 E31.12829
G1 X69.486 Y85.849 E31.13745
G1 X69.699 Y85.607 E31.14924
G1 X69.894 Y85.42 E31.15913
G1 X70.134 Y85.226 E31.17042
G1 X70.382 Y85.056 E31.18142
G1 X70.636 Y84.914 E31.19206
G1 X70.893 Y84.796 E31.20241
G1 X71.155 Y84.704 E31.21257
G1 X71.482 Y84.618 E31.22494
G1 X71.766 Y84.568 E31.23549
G1 X72.027 Y84.546 E31.24507
G1 X72.242 Y84.54 E31.25294
G1 X147.734 Y84.54 E34.0149
G1 X148.13 Y84.558 E34.02941
G1 X148.374 Y84.588 E34.0384
G1 X148.694 Y84.658 E34.05039
G1 X148.983 Y84.75 E34.06148
G1 X149.258 Y84.862 E34.07235
G1 X149.517 Y84.996 E34.08302
G1 X149.77 Y85.155 E34.09395
G1 X150.049 Y85.369 E34.10681
G1 X150.232 Y85.535 E34.11585
G1 X150.462 Y85.785 E34.12828
G1 X150.633 Y86.007 E34.13853
G1 X150.797 Y86.264 E34.14969
G1 X150.944 Y86.545 E34.16129
G1 X151.05 Y86.799 E34.17136
G1 X151.147 Y87.105 E34.1831
G1 X151.217 Y87.416 E34.19477
G1 X151.251 Y87.671 E34.20418
G1 X151.269 Y88.03 E34.21733
G1 X151.27 Y131.928 E35.82339
G1 X151.255 Y132.296 E35.83686
G1 X151.22 Y132.576 E35.84719
G1 X151.164 Y132.841 E35.8571
G1 X151.068 Y133.153 E35.86904
G1 X150.978 Y133.381 E35.87801
G1 X150.828 Y133.683 E35.89034
G1 X150.679 Y133.924 E35.90071
G1 X150.508 Y134.158 E35.91131
G1 X150.304 Y134.39 E35.92262
G1 X150.109 Y134.577 E35.9325
G1 X149.857 Y134.782 E35.94439
G1 X149.625 Y134.941 E35.95468
G1 X149.369 Y135.084 E35.9654
G1 X149.107 Y135.204 E35.97595
G1 X148.845 Y135.296 E35.98611
G1 X148.518 Y135.382 E35.99848
G1 X148.234 Y135.432 E36.00903
G1 X147.973 Y135.454 E36.01861
G1 X147.758 Y135.46 E36.02648
G1 X72.266 Y135.46 E38.78844
G0 F6000 X70.932 Y135.024
G1 F1200 X69.163 Y133.255 E38.87997
G0 F6000 X68.937 Y132.407
G1 F1200 X71.783 Y135.253 E39.02722
G0 F6000 X72.436 Y135.283
G1 F1200 X68.906 Y131.754 E39.20984
G0 F6000 X68.906 Y131.132
G1 F1200 X73.058 Y135.283 E39.42464
G0 F6000 X73.68 Y135.283
G1 F1200 X68.906 Y130.509 E39.67165
G0 F6000 X68.906 Y129.887
G1 F1200 X74.302 Y135.283 E39.95085
G0 F6000 X74.925 Y135.283
G1 F1200 X68.906 Y129.265 E40.26225
G0 F6000 X68.906 Y128.643
G1 F1200 X75.547 Y135.283 E40.60583
G0 F6000 X76.169 Y135.283
G1 F1200 X68.906 Y128.02 E40.98162
G0 F6000 X68.906 Y127.398
G1 F1200 X76.791 Y135.283 E41.3896
G0 F6000 X77.414 Y135.283
G1 F1200 X68.906 Y126.776 E41.82978
G0 F6000 X68.906 Y126.154
G1 F1200 X78.036 Y135.283 E42.30215
G0 F6000 X78.658 Y135.283
G1 F1200 X68.906 Y125.531 E42.80672
G0 F6000 X68.906 Y124.909
G1 F1200 X79.28 Y135.283 E43.34348
G0 F6000 X79.903 Y135.283
G1 F1200 X68.906 Y124.287 E43.91244
G0 F6000 X68.906 Y123.665
G1 F1200 X80.525 Y135.283 E44.51359
G0 F6000 X81.147 Y135.283
G1 F1200 X68.906 Y123.042 E45.14695
G0 F6000 X68.906 Y122.42
G1 F1200 X81.769 Y135.283 E45.81249
G0 F6000 X82.392 Y135.283
G1 F1200 X68.906 Y121.798 E46.51024
G0 F6000 X68.906 Y121.176
G1 F1200 X83.014 Y135.283 E47.24017
G0 F6000 X83.636 Y135.283
G1 F1200 X68.906 Y120.553 E48.00231
G0 F6000 X68.906 Y119.931
G1 F1200 X84.258 Y135.283 E48.79663
G0 F6000 X84.881 Y135.283
G1 F1200 X68.906 Y119.309 E49.62316
G0 F6000 X68.906 Y118.687
G1 F1200 X85.503 Y135.283 E50.48187
G0 F6000 X86.125 Y135.283
G1 F1200 X68.906 Y118.064 E51.3728
G0 F6000 X68.906 Y117.442
G1 F1200 X86.747 Y135.283 E52.2959
G0 F6000 X87.37 Y135.283
G1 F1200 X68.906 Y116.82 E53.25121
G0 F6000 X68.906 Y116.198
G1 F1200 X87.992 Y135.283 E54.23871
G0 F6000 X88.614 Y135.283
G1 F1200 X68.906 Y115.575 E55.25841
G0 F6000 X68.906 Y114.953
G1 F1200 X89.236 Y135.283 E56.3103
G0 F6000 X89.859 Y135.283
G1 F1200 X68.906 Y114.331 E57.3944
G0 F6000 X68.906 Y113.709
G1 F1200 X90.481 Y135.283 E58.51067
G0 F6000 X91.103 Y135.283
G1 F1200 X68.906 Y113.086 E59.65916
G0 F6000 X68.906 Y112.464
G1 F1200 X91.725 Y135.283 E60.83983
G0 F6000 X92.348 Y135.283
G1 F1200 X68.906 Y111.842 E62.05271
G0 F6000 X68.906 Y111.22
G1 F1200 X92.97 Y135.283 E63.29777
G0 F6000 X93.592 Y135.283
G1 F1200 X68.906 Y110.597 E64.57504
G0 F6000 X68.906 Y109.974
G1 F1200 X94.214 Y135.283 E65.88452
G0 F6000 X94.837 Y135.283
G1 F1200 X68.906 Y109.352 E67.2262
G0 F6000 X68.906 Y108.73
G1 F1200 X95.459 Y135.283 E68.60007
G0 F6000 X96.081 Y135.283
G1 F1200 X68.906 Y108.108 E70.00612
G0 F6000 X68.906 Y107.485
G1 F1200 X96.703 Y135.283 E71.44438
G0 F6000 X97.326 Y135.283
G1 F1200 X68.906 Y106.863 E72.91485
G0 F6000 X68.906 Y106.241
G1 F1200 X97.948 Y135.283 E74.4175
G0 F6000 X98.57 Y135.283
G1 F1200 X68.906 Y105.619 E75.95234
G0 F6000 X68.906 Y104.996
G1 F1200 X99.192 Y135.283 E77.51938
G0 F6000 X99.815 Y135.283
G1 F1200 X68.906 Y104.374 E79.11863
G0 F6000 X68.906 Y103.752
G1 F1200 X100.437 Y135.283 E80.75006
G0 F6000 X101.059 Y135.283
G1 F1200 X68.906 Y103.13 E82.41368
G0 F6000 X68.906 Y102.507
G1 F1200 X101.681 Y135.283 E84.10951
G0 F6000 X102.304 Y135.283
G1 F1200 X68.906 Y101.885 E85.83754
G0 F6000 X68.906 Y101.263
G1 F1200 X102.926 Y135.283 E87.59775
G0 F6000 X103.548 Y135.283
G1 F1200 X68.906 Y100.641 E89.39015
G0 F6000 X68.906 Y100.018
G1 F1200 X104.17 Y135.283 E91.21476
G0 F6000 X104.793 Y135.283
G1 F1200 X68.906 Y99.396 E93.07158
G0 F6000 X68.906 Y98.774
G1 F1200 X105.415 Y135.283 E94.96058
G0 F6000 X106.037 Y135.283
G1 F1200 X68.906 Y98.152 E96.88176
G0 F6000 X68.906 Y97.529
G1 F1200 X106.659 Y135.283 E98.83515
G0 F6000 X107.282 Y135.283
G1 F1200 X68.906 Y96.907 E100.82074
G0 F6000 X68.906 Y96.285
G1 F1200 X107.904 Y135.283 E102.83853
G0 F6000 X108.526 Y135.283
G1 F1200 X68.906 Y95.663 E104.88849
G0 F6000 X68.906 Y95.04
G1 F1200 X109.149 Y135.283 E106.97069
G0 F6000 X109.771 Y135.283
G1 F1200 X68.906 Y94.418 E109.08507
G0 F6000 X68.906 Y93.796
G1 F1200 X110.393 Y135.283 E111.23163
G0 F6000 X111.015 Y135.283
G1 F1200 X68.906 Y93.174 E113.41038
G0 F6000 X68.906 Y92.551
G1 F1200 X111.638 Y135.283 E115.62136
G0 F6000 X112.26 Y135.283
G1 F1200 X68.906 Y91.929 E117.86452
G0 F6000 X68.906 Y91.307
G1 F1200 X112.882 Y135.283 E120.13987
G0 F6000 X113.504 Y135.283
G1 F1200 X68.906 Y90.685 E122.4474
G0 F6000 X68.906 Y90.062
G1 F1200 X114.127 Y135.283 E124.78716
G0 F6000 X114.749 Y135.283
G1 F1200 X68.906 Y89.44 E127.1591
G0 F6000 X68.906 Y88.818
G1 F1200 X115.371 Y135.283 E129.56323
G0 F6000 X115.993 Y135.283
G1 F1200 X68.906 Y88.196 E131.99954
G0 F6000 X68.934 Y87.602
G1 F1200 X116.616 Y135.283 E134.46661
G0 F6000 X117.238 Y135.283
G1 F1200 X69.041 Y87.086 E136.96036
G0 F6000 X69.21 Y86.633
G1 F1200 X117.86 Y135.283 E139.47754
G0 F6000 X118.482 Y135.283
G1 F1200 X69.431 Y86.232 E142.01547
G0 F6000 X69.695 Y85.874
G1 F1200 X119.105 Y135.283 E144.57195
G0 F6000 X119.727 Y135.283
G1 F1200 X70.002 Y85.558 E147.14475
G0 F6000 X70.354 Y85.288
G1 F1200 X120.349 Y135.283 E149.73152
G0 F6000 X120.971 Y135.283
G1 F1200 X70.745 Y85.057 E152.33025
G0 F6000 X71.188 Y84.878
G1 F1200 X121.594 Y135.283 E154.93826
G0 F6000 X122.216 Y135.283
G1 F1200 X71.692 Y84.759 E157.5524
G0 F6000 X72.27 Y84.715
G1 F1200 X122.838 Y135.283 E160.16882
G0 F6000 X123.46 Y135.283
G1 F1200 X72.892 Y84.715 E162.78524
