;FLAVOR:Marlin
;TIME:2165
;Filament used: 1.4613m
;Layer height: 0.2
;MINX:69.02
;MINY:84.83
;MINZ:0.2
;MAXX:150.98
;MAXY:135.17
;MAXZ:1.2
;Generated with Cura_SteamEngine 4.8.0
M140 S60
M105
M190 S60
M104 S200
M105
M109 S200
M82 ;absolute extrusion mode
G28 ; home all axes
 M117 Purge extruder
 G92 E0 ; reset extruder
 G1 Z1.0 F3000 ; move z up little to prevent scratching of surface
 G1 X2 Y20 Z0.3 F5000.0 ; move to start-line position
 G1 X2 Y200.0 Z0.3 F1500.0 E15 ; draw 1st line
 G1 X2 Y200.0 Z0.4 F5000.0 ; move to side a little
 G1 X2 Y20 Z0.4 F1500.0 E30 ; draw 2nd line
 G92 E0 ; reset extruder
 G1 Z1.0 F3000 ; move z up little to prevent scratching of surface
G92 E0
G92 E0
G1 F1500 E-2
;LAYER_COUNT:5
;LAYER:0
M107
G1 F300 Z0.4
;MESH:GIFT_CARD_BM1.stl
G0 F6000 X138.393 Y104.33 Z0.4
;TYPE:WALL-INNER
G1 F300 Z0.2
G1 F1500 E0
G1 F1200 X138.579 Y104.227 E0.00778
G1 X138.579 Y104.664 E0.01787
G1 X148.623 Y104.664 E0.38534
G1 X148.623 Y99.767 E0.5645
G1 X146.295 Y99.767 E0.64967
G1 X146.295 Y94.621 E0.83794
G1 X146.408 Y94.601 E0.84214
G1 X146.867 Y94.446 E0.85987
G1 X147.265 Y94.23 E0.87644
G1 X147.637 Y93.934 E0.89383
G1 X147.97 Y93.544 E0.91259
G1 X148.214 Y93.098 E0.93119
G1 X148.355 Y92.672 E0.94761
G1 X148.426 Y92.207 E0.96482
G1 X148.437 Y91.779 E0.98048
G1 X148.393 Y91.375 E0.99535
G1 X148.282 Y90.932 E1.01206
G1 X148.057 Y90.466 E1.03099
G1 X147.942 Y90.319 E1.03782
G1 X149.165 Y87.954 E1.13523
G1 X149.33 Y87.635 E1.14837
G1 X148.971 Y87.635 E1.1559
G1 X148.97 Y87.635 E1.15593
G1 X146.175 Y87.635 E1.25819
G1 X132.712 Y87.635 E1.75075
G1 X132.696 Y87.696 E1.75306
G1 X132.59 Y88.077 E1.76753
G1 X132.488 Y87.695 E1.77133
G1 X132.472 Y87.635
G1 X128.76 Y87.635 E1.90714
G1 X127.631 Y87.698 E1.94851
G1 X127.631 Y87.635 E1.95081
G1 X124.181 Y87.635 E2.07704
G1 X124.181 Y94.695 E2.33533
G1 X124.235 Y94.695 E2.33731
G1 X124.235 Y104.66 E2.70189
G1 X130.577 Y104.66 E2.93392
G1 X130.951 Y104.632 E2.94764
G1 X131.354 Y104.551 E2.96268
G1 X131.746 Y104.418 E2.97783
G1 X132.114 Y104.241 E2.99277
G1 X132.462 Y104.017 E3.00791
G1 X132.778 Y103.751 E3.02302
G1 X133.058 Y103.449 E3.03809
G1 X133.298 Y103.115 E3.05313
G1 X133.494 Y102.756 E3.0681
G1 X133.643 Y102.377 E3.083
G1 X133.745 Y101.985 E3.09782
G1 X133.798 Y101.579 E3.1128
G1 X133.799 Y101.488 E3.11613
G1 X133.801 Y101.166 E3.12791
G1 X133.759 Y100.8 E3.14139
G1 X133.956 Y101.036 E3.14351
G1 X134.162 Y101.283 E3.15229
G1 X137.244 Y104.968 E3.32805
G1 X138.393 Y104.33 E3.37613
G0 F6000 X138.302 Y103.877
G1 F1200 X137.435 Y101.245 E3.47751
G1 X137.341 Y100.958 E3.48856
G1 X137.643 Y100.958 E3.49514
G1 X137.644 Y100.958 E3.49518
G1 X139.019 Y100.958 E3.54548
G1 X139.019 Y104.224 E3.66497
G1 X148.183 Y104.224 E4.00025
G1 X148.183 Y100.207 E4.14721
G1 X145.855 Y100.207 E4.23239
G1 X145.855 Y94.24 E4.4507
G1 X145.938 Y94.236 E4.45374
G1 X146.299 Y94.173 E4.46714
G1 X146.691 Y94.041 E4.48228
G1 X147.021 Y93.862 E4.49601
G1 X147.33 Y93.616 E4.51046
G1 X147.606 Y93.293 E4.52601
G1 X147.809 Y92.922 E4.54148
G1 X147.926 Y92.569 E4.55508
G1 X147.987 Y92.168 E4.56992
G1 X147.996 Y91.797 E4.5835
G1 X147.959 Y91.453 E4.59616
G1 X147.866 Y91.083 E4.61012
G1 X147.681 Y90.7 E4.62568
G1 X147.44 Y90.391 E4.64002
G1 X147.419 Y90.373 E4.64103
G1 X148.442 Y88.394 E4.72253
G1 X148.607 Y88.075 E4.73567
G1 X148.248 Y88.075 E4.7432
G1 X148.247 Y88.075 E4.74324
G1 X146.185 Y88.075 E4.81868
G1 X145.664 Y88.098 E4.83776
G1 X145.664 Y88.075 E4.8386
G1 X137.567 Y88.075 E5.13484
G1 X137.486 Y88.228 E5.14117
G1 X137.195 Y88.778 E5.16394
G1 X137.195 Y88.075 E5.17492
G1 X133.047 Y88.075 E5.32668
G1 X132.853 Y88.776 E5.35329
G1 X132.321 Y88.776 E5.37275
G1 X132.134 Y88.075 E5.3993
G1 X128.772 Y88.075 E5.5223
G1 X128.002 Y88.118 E5.55052
G1 X128.002 Y89.228 E5.59113
G1 X127.191 Y89.228 E5.6208
G1 X127.191 Y88.075 E5.66298
G1 X124.621 Y88.075 E5.75701
G1 X124.621 Y94.255 E5.98311
G1 X124.675 Y94.255 E5.98509
G1 X124.675 Y104.22 E6.34967
G1 X130.56 Y104.22 E6.56498
G1 X130.891 Y104.195 E6.57712
G1 X131.24 Y104.125 E6.59014
G1 X131.579 Y104.01 E6.60324
G1 X131.899 Y103.856 E6.61623
G1 X132.2 Y103.662 E6.62934
G1 X132.474 Y103.432 E6.64242
G1 X132.717 Y103.17 E6.6555
G1 X132.925 Y102.88 E6.66855
G1 X133.095 Y102.569 E6.68152
G1 X133.224 Y102.241 E6.69442
G1 X133.312 Y101.901 E6.70727
G1 X133.358 Y101.549 E6.72025
G1 X133.361 Y101.19 E6.73339
G1 X133.319 Y100.832 E6.74658
G1 X133.231 Y100.486 E6.75964
G1 X133.102 Y100.155 E6.77264
G1 X132.933 Y99.841 E6.78568
G1 X132.793 Y99.646 E6.79446
G1 X132.725 Y99.55 E6.79877
G1 X132.485 Y99.287 E6.81179
G1 X132.354 Y99.176 E6.81808
G1 X132.323 Y99.15 E6.81956
G1 X132.346 Y99.13
G1 X132.529 Y98.968 E6.82511
G1 X132.669 Y98.811 E6.83281
G1 X132.688 Y98.834
G1 X133.055 Y99.273 E6.85374
G1 X133.13 Y99.363 E6.85799
G1 X137.348 Y104.407 E7.09856
G1 X138.302 Y103.877 E7.13848
G0 F6000 X137.452 Y103.846
;TYPE:WALL-OUTER
G1 F1200 X137.77 Y103.669 E7.1518
G1 X136.733 Y100.518 E7.27316
G1 X139.173 Y100.518 E7.36243
G1 X139.295 Y100.274 E7.37242
G1 X134.883 Y94.458 E7.6395
G1 X134.555 Y94.626 E7.65298
G1 X135.676 Y98.307 E7.79376
G1 X133.152 Y98.307 E7.8861
G1 X133.033 Y98.561 E7.89637
G1 X137.452 Y103.846 E8.14841
G1 F1500 E6.14841
G1 F300 Z0.4
G0 F6000 X140.016 Y99.767 Z0.4
;TYPE:WALL-INNER
G1 F300 Z0.2
G1 F1500 E8.14841
G1 F1200 X136.435 Y95.046 E8.3652
G1 X136.169 Y94.695 E8.38131
G1 X136.609 Y94.695 E8.3902
G1 X136.61 Y94.695 E8.39024
G1 X140.907 Y94.695 E8.54745
G1 X140.907 Y99.767 E8.73302
G1 X140.016 Y99.767 E8.76561
G0 F6000 X139.797 Y100.207
G1 F1200 X135.549 Y94.607 E9.02277
G1 X135.282 Y94.255 E9.03894
G1 X135.723 Y94.255 E9.04785
G1 X135.724 Y94.255 E9.04788
G1 X137.195 Y94.255 E9.1017
G1 X137.195 Y93.727 E9.12102
G1 X137.443 Y94.08 E9.12583
G1 X137.566 Y94.255 E9.13252
G1 X141.347 Y94.255 E9.27086
G1 X141.347 Y100.207 E9.48862
G1 X139.797 Y100.207 E9.54532
G1 F1500 E7.54532
G1 F300 Z0.4
G0 F6000 X139.459 Y103.784 Z0.4
;TYPE:WALL-OUTER
G1 F300 Z0.2
G1 F1500 E9.54532
G1 F1200 X147.743 Y103.784 E9.8484
G1 X147.743 Y100.647 E9.96318
G1 X145.415 Y100.647 E10.04835
G1 X145.415 Y94.518 E10.27258
G1 X141.787 Y94.518 E10.40532
G1 X141.787 Y100.647 E10.62956
G1 X139.459 Y100.647 E10.71473
G1 X139.459 Y103.784 E10.8295
G1 F1500 E8.8295
G1 F300 Z0.4
G0 F6000 X143.514 Y93.815 Z0.4
G1 F300 Z0.2
G1 F1500 E10.8295
G1 F1200 X145.558 Y93.815 E10.90428
G1 X145.888 Y93.798 E10.91637
G1 X146.19 Y93.745 E10.92759
G1 X146.515 Y93.636 E10.94013
G1 X146.777 Y93.494 E10.95103
G1 X147.023 Y93.298 E10.96254
G1 X147.242 Y93.042 E10.97487
G1 X147.404 Y92.746 E10.98721
G1 X147.497 Y92.466 E10.99801
G1 X147.548 Y92.13 E11.01044
G1 X147.555 Y91.815 E11.02197
G1 X147.525 Y91.53 E11.03245
G1 X147.45 Y91.234 E11.04362
G1 X147.305 Y90.933 E11.05585
G1 X147.122 Y90.698 E11.06674
G1 X146.893 Y90.506 E11.07768
G1 X146.864 Y90.489 E11.07891
G1 X147.884 Y88.515 E11.1602
G1 X146.195 Y88.515 E11.22199
G1 X145.907 Y88.528 E11.23254
G1 X145.224 Y89.975 E11.29108
G1 X145.224 Y88.515 E11.3445
G1 X143.514 Y88.515 E11.40706
G1 X143.514 Y93.815 E11.60097
G1 F1500 E9.60097
G1 F300 Z0.4
G0 F6000 X139.179 Y92.212 Z0.4
;TYPE:WALL-INNER
G1 F300 Z0.2
G1 F1500 E11.60097
G1 F1200 X138.785 Y91.695 E11.62475
G1 X138.677 Y91.553 E11.63128
G1 X138.766 Y91.387 E11.63817
G1 X139.179 Y90.614 E11.67023
G1 X139.179 Y91.49 E11.68674
G1 X139.179 Y91.562 E11.68938
G1 X139.179 Y92.212 E11.7019
G0 F6000 X139.619 Y93.516
;TYPE:WALL-OUTER
G1 F1200 X138.156 Y91.595 E11.79024
G1 X139.619 Y88.859 E11.90375
G1 X139.619 Y93.516 E12.07413
G1 F1500 E10.07413
G1 F300 Z0.4
G0 F6000 X127.212 Y94.078 Z0.4
;TYPE:WALL-INNER
G1 F300 Z0.2
G1 F1500 E12.07413
G1 F1200 X127.642 Y93.18 E12.11056
G1 X128.062 Y94.079 E12.14686
G1 X127.212 Y94.078 E12.17796
G1 F1500 E10.17796
G1 F300 Z0.4
G0 F6000 X130.593 Y94.083 Z0.4
G1 F300 Z0.2
G1 F1500 E12.17796
G1 F1200 X130.593 Y93.334 E12.20537
G1 X130.593 Y93.333 E12.2054
G1 X130.593 Y91.885 E12.25838
G1 X131.022 Y93.269 E12.28518
G1 X131.233 Y93.95 E12.31126
G1 X131.244 Y93.987 E12.31267
G1 X131.294 Y94.147 E12.31881
G1 X131.311 Y94.199 E12.32081
G1 X131.221 Y94.17 E12.32112
G1 X130.876 Y94.102 E12.33001
G1 X130.837 Y94.1 E12.33137
G1 X130.593 Y94.083 E12.34032
G0 F6000 X131.482 Y94.255
G1 F1200 X131.556 Y94.255 E12.34303
G1 X131.877 Y94.255 E12.35477
G1 X132.177 Y94.255 E12.36575
G1 X132.28 Y94.255 E12.36951
G1 X133.869 Y94.255 E12.42765
G1 X133.947 Y94.001 E12.43737
G1 X134.175 Y93.266 E12.46552
G1 X134.604 Y91.883 E12.5185
G1 X134.604 Y93.331 E12.54529
G1 X134.604 Y94.106 E12.57365
G1 X134.263 Y94.281 E12.58767
G1 X134.027 Y94.402 E12.59509
G1 X135.082 Y97.867 E12.72761
G1 X133.326 Y97.867 E12.79185
G1 X133.324 Y97.867 E12.79192
G1 X133.242 Y97.867 E12.79492
G1 X133.208 Y97.867 E12.79617
G1 X133.242 Y97.775 E12.79753
G1 X133.324 Y97.432 E12.80765
G1 X133.324 Y97.431 E12.80769
G1 X133.361 Y97.078 E12.82067
G1 X133.358 Y96.732 E12.83333
G1 X133.309 Y96.377 E12.84644
G1 X133.217 Y96.033 E12.85947
G1 X133.084 Y95.702 E12.87252
G1 X132.908 Y95.39 E12.88563
G1 X132.696 Y95.102 E12.89871
G1 X132.451 Y94.846 E12.91167
G1 X132.256 Y94.685 E12.92093
G1 X132.177 Y94.62 E12.92437
G1 X131.877 Y94.431 E12.93292
G1 X131.556 Y94.279 E12.9366
G1 X131.482 Y94.255 E12.93677
G0 F6000 X132.916 Y94.695
G1 F1200 X133.034 Y94.695 E12.94109
G1 X133.345 Y94.695 E12.95246
G1 X133.656 Y94.695 E12.96384
G1 X133.82 Y95.237 E12.98456
G1 X133.867 Y95.393 E12.99052
G1 X133.987 Y95.786 E13.00555
G1 X134.107 Y96.178 E13.02055
G1 X134.212 Y96.522 E13.03371
G1 X134.402 Y97.144 E13.05751
G1 X134.488 Y97.427 E13.06833
G1 X134.193 Y97.427 E13.07479
G1 X134.192 Y97.427 E13.07482
G1 X133.801 Y97.427 E13.08913
G1 X133.767 Y97.427 E13.09037
G1 X133.801 Y97.099 E13.0986
G1 X133.798 Y96.7 E13.1132
G1 X133.79 Y96.647 E13.11516
G1 X133.741 Y96.29 E13.12749
G1 X133.635 Y95.894 E13.1403
G1 X133.481 Y95.511 E13.15357
G1 X133.401 Y95.369 E13.15929
G1 X133.278 Y95.151 E13.16844
G1 X133.218 Y95.069 E13.17216
G1 X133.034 Y94.818 E13.17989
G1 X132.916 Y94.695 E13.18193
G1 F1500 E11.18193
G1 F300 Z0.4
G0 F6000 X125.061 Y93.815 Z0.4
;TYPE:WALL-OUTER
G1 F300 Z0.2
G1 F1500 E13.18193
G1 F1200 X126.851 Y93.815 E13.24742
G1 X127.646 Y92.15 E13.31492
G1 X128.425 Y93.815 E13.38218
G1 X130.153 Y93.815 E13.4454
G1 X130.153 Y88.982 E13.62222
G1 X131.652 Y93.815 E13.80735
G1 X133.545 Y93.815 E13.87661
G1 X135.044 Y88.977 E14.06191
G1 X135.044 Y93.815 E14.23892
G1 X136.755 Y93.815 E14.30152
G1 X136.755 Y92.335 E14.35566
G1 X137.795 Y93.815 E14.42184
G1 X139.539 Y93.815 E14.48565
G1 X139.619 Y93.653 E14.49226
G1 X139.619 Y93.815 E14.49819
G1 X143.363 Y93.815 E14.63516
G1 X143.363 Y92.187 E14.69473
G1 X141.33 Y92.187 E14.76911
G1 X141.33 Y91.955 E14.77759
G1 X142.801 Y91.955 E14.83141
G1 X142.801 Y90.417 E14.88768
G1 X141.33 Y90.417 E14.9415
G1 X141.33 Y90.142 E14.95156
G1 X143.398 Y90.142 E15.02722
G1 X143.398 Y88.515 E15.08675
G1 X137.832 Y88.515 E15.29039
G1 X136.938 Y90.204 E15.3603
G1 X136.755 Y89.965 E15.37131
G1 X136.755 Y88.515 E15.42436
G1 X133.382 Y88.515 E15.54777
G1 X133.188 Y89.216 E15.57438
G1 X131.983 Y89.216 E15.61847
G1 X131.796 Y88.515 E15.64501
G1 X128.784 Y88.515 E15.75521
G1 X128.442 Y88.534 E15.76774
G1 X128.443 Y90.437 E15.83736
G1 X128.113 Y89.668 E15.86798
G1 X127.087 Y89.668 E15.90552
G1 X126.75 Y90.459 E15.93697
G1 X126.751 Y88.515 E16.0081
G1 X125.061 Y88.515 E16.06993
G1 X125.061 Y93.815 E16.26383
G1 F1500 E14.26383
G1 F300 Z0.4
G0 F6000 X125.115 Y103.78 Z0.4
G1 F300 Z0.2
G1 F1500 E16.26383
G1 F1200 X130.543 Y103.78 E16.46242
G1 X130.831 Y103.758 E16.47299
G1 X131.126 Y103.699 E16.484
G1 X131.412 Y103.602 E16.49505
G1 X131.683 Y103.471 E16.50606
G1 X131.938 Y103.307 E16.51715
G1 X132.17 Y103.112 E16.52824
G1 X132.376 Y102.891 E16.53929
G1 X132.552 Y102.645 E16.55036
G1 X132.696 Y102.382 E16.56133
G1 X132.805 Y102.105 E16.57222
G1 X132.879 Y101.817 E16.5831
G1 X132.918 Y101.518 E16.59413
G1 X132.921 Y101.214 E16.60525
G1 X132.885 Y100.912 E16.61638
G1 X132.811 Y100.62 E16.6274
G1 X132.702 Y100.34 E16.6384
G1 X132.559 Y100.074 E16.64944
G1 X132.383 Y99.828 E16.66051
G1 X132.179 Y99.605 E16.67157
G1 X131.948 Y99.41 E16.68263
G1 X131.697 Y99.244 E16.69364
G1 X131.504 Y99.151 E16.70148
G1 X131.74 Y99.028 E16.71121
G1 X131.99 Y98.857 E16.72229
G1 X132.218 Y98.656 E16.73341
G1 X132.409 Y98.44 E16.74396
G1 X132.579 Y98.191 E16.75499
G1 X132.717 Y97.926 E16.76593
G1 X132.82 Y97.647 E16.77681
G1 X132.889 Y97.357 E16.78771
G1 X132.921 Y97.057 E16.79875
G1 X132.918 Y96.764 E16.80947
G1 X132.877 Y96.464 E16.82055
G1 X132.799 Y96.172 E16.83161
G1 X132.687 Y95.893 E16.84261
G1 X132.538 Y95.63 E16.85367
G1 X132.358 Y95.386 E16.86476
G1 X132.151 Y95.169 E16.87573
G1 X131.918 Y94.977 E16.88678
G1 X131.665 Y94.817 E16.89773
G1 X131.394 Y94.689 E16.90869
G1 X131.11 Y94.597 E16.91962
G1 X130.818 Y94.539 E16.93051
G1 X130.516 Y94.519 E16.94158
G1 X125.115 Y94.518 E17.13918
G1 X125.115 Y103.78 E17.47804
G1 F1500 E15.47804
G1 F300 Z0.4
G0 F6000 X81.738 Y106.206 Z0.4
;TYPE:WALL-INNER
G1 F300 Z0.2
G1 F1500 E17.47804
G1 F1200 X81.613 Y95.725 E17.86153
G1 X80.311 Y95.16 E17.91346
G1 X78.359 Y96.918 E18.00957
G1 X78.136 Y97.118 E18.02053
G1 X78.013 Y96.845 E18.02706
G1 X76.222 Y92.868 E18.18663
G1 X74.442 Y93.303 E18.25367
G1 X75.099 Y104.29 E18.65636
G1 X76.379 Y104.815 E18.70698
G1 X78.209 Y103.166 E18.7971
G1 X78.437 Y102.96 E18.80835
G1 X78.557 Y103.243 E18.81501
G1 X79.968 Y106.576 E18.94743
G1 X81.738 Y106.206 E19.01359
G0 F6000 X81.294 Y105.849
G1 F1200 X81.176 Y96.015 E19.3734
G1 X80.395 Y95.676 E19.40455
G1 X78.205 Y97.649 E19.5124
G1 X77.983 Y97.849 E19.52333
G1 X77.861 Y97.577 E19.52983
G1 X77.86 Y97.576 E19.52988
G1 X75.971 Y93.382 E19.69817
G1 X74.903 Y93.643 E19.73839
G1 X75.522 Y103.988 E20.11755
G1 X76.29 Y104.303 E20.14792
G1 X78.373 Y102.425 E20.25053
G1 X78.601 Y102.219 E20.26177
G1 X78.721 Y102.502 E20.26844
G1 X80.232 Y106.071 E20.41024
G1 X81.294 Y105.849 E20.44993
G0 F6000 X80.85 Y105.492
;TYPE:WALL-OUTER
G1 F1200 X80.739 Y96.305 E20.78607
G1 X80.479 Y96.192 E20.79644
G1 X77.83 Y98.58 E20.92693
G1 X75.72 Y93.896 E21.11488
G1 X75.364 Y93.983 E21.12829
G1 X75.945 Y103.686 E21.48392
G1 X76.201 Y103.791 E21.49404
G1 X78.765 Y101.478 E21.62038
G1 X80.496 Y105.566 E21.7828
G1 X80.85 Y105.492 E21.79603
G1 F1500 E19.79603
G1 F300 Z0.4
G0 F6000 X90.958 Y107.225 Z0.4
;TYPE:WALL-INNER
G1 F300 Z0.2
G1 F1500 E21.79603
G1 F1200 X95.126 Y94.244 E22.29484
G1 X94.506 Y93.673 E22.32567
G1 X90.395 Y95.38 E22.48853
G1 X90.121 Y95.493 E22.49937
G1 X90.094 Y95.198 E22.50586
G1 X89.447 Y88.267 E22.76054
G1 X88.347 Y88.174 E22.80092
G1 X84.594 Y102.093 E23.32835
G1 X85.212 Y102.635 E23.35843
G1 X89.155 Y100.997 E23.51464
G1 X89.435 Y100.881 E23.52573
G1 X89.456 Y101.184 E23.53233
G1 X89.876 Y107.096 E23.74917
G1 X90.958 Y107.225 E23.78904
G0 F6000 X90.65 Y106.745
;TYPE:WALL-OUTER
G1 F1200 X94.621 Y94.377 E24.26429
G1 X94.415 Y94.187 E24.27454
G1 X89.738 Y96.128 E24.4598
G1 X89.043 Y88.674 E24.7337
G1 X88.676 Y88.643 E24.74717
G1 X85.09 Y101.943 E25.25115
G1 X85.296 Y102.124 E25.26118
G1 X89.831 Y100.241 E25.44083
G1 X90.289 Y106.702 E25.67781
G1 X90.65 Y106.745 E25.69111
G1 F1500 E23.69111
G1 F300 Z0.4
G0 F6000 X101.652 Y113.221 Z0.4
;TYPE:WALL-INNER
G1 F300 Z0.2
G1 F1500 E25.69111
G1 F1200 X114.351 Y98.255 E26.40921
G1 X113.994 Y97.49 E26.4401
G1 X107.074 Y97.495 E26.69327
G1 X107.073 Y97.495 E26.69331
G1 X106.777 Y97.495 E26.70414
G1 X106.864 Y97.212 E26.71062
G1 X109.984 Y87.128 E27.09681
G1 X109.004 Y86.621 E27.13717
G1 X96.324 Y103.081 E27.89735
G1 X96.687 Y103.819 E27.92744
G1 X103.357 Y103.815 E28.17147
G1 X103.358 Y103.815 E28.17151
G1 X103.661 Y103.815 E28.18259
G1 X103.565 Y104.103 E28.18919
G1 X100.703 Y112.686 E28.52021
G1 X101.652 Y113.221 E28.56007
G0 F6000 X101.551 Y112.659
;TYPE:WALL-OUTER
G1 F1200 X113.833 Y98.185 E29.25457
G1 X113.714 Y97.93 E29.26487
G1 X106.181 Y97.935 E29.54047
G1 X109.455 Y87.35 E29.94584
G1 X109.128 Y87.181 E29.9593
G1 X96.84 Y103.133 E30.696
G1 X96.961 Y103.379 E30.70603
G1 X104.271 Y103.375 E30.97348
G1 X101.235 Y112.481 E31.32466
G1 X101.551 Y112.659 E31.33793
G1 F1500 E29.33793
G1 F300 Z0.4
